;FLAVOR:Marlin
;TIME:1332
;Filament used: 0.686581m
;Layer height: 0.16
;MINX:86.7
;MINY:80.102
;MINZ:0.2
;MAXX:133.3
;MAXY:141.399
;MAXZ:1.96
;Generated with Creality Slicer 4.8.2-172
M140 S60
M105
M190 S60
M104 S200
M105
M109 S200
M82 ;absolute extrusion mode

G28 ;Home

G92 E0 ;Reset Extruder
G1 Z2.0 F3000 ;Move Z Axis up
G1 X10.1 Y20 Z0.28 F5000.0 ;Move to start position
G1 X10.1 Y200.0 Z0.28 F1500.0 E15 ;Draw the first line
G1 X10.4 Y200.0 Z0.28 F5000.0 ;Move to side a little
G1 X10.4 Y20 Z0.28 F1500.0 E30 ;Draw the second line
G92 E0 ;Reset Extruder
G1 Z2.0 F3000 ;Move Z Axis up

G92 E0
G92 E0
G1 F3600 E-5
;LAYER_COUNT:12
;LAYER:0
M107
G0 F6000 X88.985 Y82.504 Z0.2
;TYPE:SKIRT
G1 F3600 E0
G1 F1200 X89.102 Y82.387 E0.0055
G1 X89.688 Y81.857 E0.03178
G1 X90.324 Y81.39 E0.05803
G1 X91.004 Y80.989 E0.08428
G1 X91.722 Y80.659 E0.11057
G1 X92.469 Y80.404 E0.13682
G1 X93.238 Y80.225 E0.16308
G1 X94.022 Y80.125 E0.18937
G1 X94.617 Y80.102 E0.20917
G1 X125.383 Y80.102 E1.23245
G1 X126.172 Y80.142 E1.25873
G1 X126.952 Y80.261 E1.28497
G1 X127.717 Y80.459 E1.31125
G1 X128.457 Y80.733 E1.3375
G1 X129.166 Y81.081 E1.36377
G1 X129.837 Y81.499 E1.39006
G1 X130.461 Y81.982 E1.41631
G1 X130.898 Y82.387 E1.43612
G1 X131.015 Y82.504 E1.44163
G1 X131.545 Y83.09 E1.46791
G1 X132.012 Y83.726 E1.49415
G1 X132.413 Y84.406 E1.52041
G1 X132.743 Y85.124 E1.54669
G1 X132.998 Y85.871 E1.57294
G1 X133.177 Y86.64 E1.5992
G1 X133.277 Y87.424 E1.62549
G1 X133.3 Y88.019 E1.6453
G1 X133.3 Y109.997 E2.37629
G1 X133.26 Y110.786 E2.40256
G1 X133.141 Y111.566 E2.42881
G1 X132.943 Y112.331 E2.45509
G1 X132.669 Y113.071 E2.48133
G1 X132.321 Y113.78 E2.5076
G1 X131.706 Y114.722 E2.54502
G1 X131.623 Y114.831 E2.54958
G1 X131.113 Y115.435 E2.57587
G1 X130.545 Y115.983 E2.60212
G1 X129.925 Y116.472 E2.62838
G1 X129.8 Y116.551 E2.6333
G1 X129.8 Y132.306 E3.15731
G1 X129.76 Y133.095 E3.18359
G1 X129.641 Y133.875 E3.20983
G1 X129.443 Y134.64 E3.23612
G1 X129.169 Y135.38 E3.26236
G1 X128.821 Y136.089 E3.28863
G1 X128.403 Y136.76 E3.31492
G1 X128.015 Y137.272 E3.33629
G1 X127.925 Y137.381 E3.34099
G1 X127.392 Y137.964 E3.36727
G1 X126.803 Y138.49 E3.39353
G1 X126.163 Y138.953 E3.4198
G1 X125.48 Y139.35 E3.44608
G1 X124.761 Y139.675 E3.47232
G1 X124.012 Y139.926 E3.4986
G1 X123.454 Y140.061 E3.51769
G1 X122.84 Y140.185 E3.53852
G1 X121.767 Y140.381 E3.5748
G1 X120.82 Y140.54 E3.60674
G1 X119.864 Y140.685 E3.6389
G1 X119.154 Y140.782 E3.66274
G1 X118.938 Y140.814 E3.67
G1 X118.006 Y140.931 E3.70124
G1 X117.049 Y141.037 E3.73326
G1 X116.102 Y141.128 E3.76491
G1 X115.179 Y141.203 E3.79571
G1 X114.209 Y141.271 E3.82805
G1 X113.266 Y141.322 E3.85946
G1 X112.322 Y141.361 E3.89088
G1 X111.357 Y141.387 E3.92299
G1 X110.42 Y141.399 E3.95416
G1 X109.478 Y141.398 E3.98549
G1 X108.503 Y141.384 E4.01792
G1 X107.574 Y141.357 E4.04883
G1 X106.631 Y141.317 E4.08023
G1 X105.67 Y141.264 E4.11224
G1 X104.726 Y141.197 E4.14371
G1 X103.786 Y141.118 E4.17509
G1 X102.841 Y141.026 E4.20667
G1 X102.002 Y140.933 E4.23474
G1 X100.958 Y140.8 E4.26975
G1 X100.002 Y140.666 E4.30186
G1 X99.066 Y140.521 E4.33336
G1 X98.12 Y140.361 E4.36527
G1 X97.09 Y140.17 E4.40011
G1 X96.553 Y140.062 E4.41833
G1 X95.788 Y139.867 E4.44459
G1 X95.046 Y139.596 E4.47086
G1 X94.336 Y139.251 E4.49712
G1 X93.664 Y138.837 E4.52337
G1 X93.037 Y138.356 E4.54965
G1 X92.462 Y137.815 E4.57591
G1 X92.037 Y137.334 E4.59726
G1 X91.946 Y137.222 E4.60206
G1 X91.48 Y136.584 E4.62834
G1 X91.081 Y135.903 E4.65459
G1 X90.752 Y135.185 E4.68086
G1 X90.498 Y134.437 E4.70713
G1 X90.32 Y133.668 E4.73338
G1 X90.222 Y132.884 E4.75966
G1 X90.2 Y132.303 E4.779
G1 X90.2 Y116.546 E5.30308
G1 X89.794 Y116.262 E5.31956
G1 X89.196 Y115.746 E5.34583
G1 X88.406 Y114.867 E5.38514
G1 X88.322 Y114.758 E5.38971
G1 X87.872 Y114.109 E5.41598
G1 X87.49 Y113.418 E5.44224
G1 X87.18 Y112.692 E5.4685
G1 X86.945 Y111.938 E5.49477
G1 X86.788 Y111.164 E5.52103
G1 X86.7 Y109.997 E5.55996
G1 X86.7 Y88.019 E6.29095
G1 X86.74 Y87.23 E6.31723
G1 X86.859 Y86.45 E6.34347
G1 X87.057 Y85.685 E6.36975
G1 X87.331 Y84.945 E6.396
G1 X87.679 Y84.236 E6.42227
G1 X88.097 Y83.565 E6.44856
G1 X88.58 Y82.941 E6.47481
G1 X88.985 Y82.504 E6.49462
G0 F6000 X89.267 Y82.786
G1 F1200 X89.384 Y82.669 E6.50013
G1 X89.956 Y82.155 E6.5257
G1 X90.578 Y81.702 E6.5513
G1 X91.243 Y81.316 E6.57687
G1 X91.945 Y81.001 E6.60246
G1 X92.676 Y80.761 E6.62805
G1 X93.427 Y80.598 E6.65361
G1 X94.192 Y80.514 E6.67921
G1 X94.617 Y80.502 E6.69335
G1 X125.383 Y80.502 E7.71663
G1 X126.151 Y80.542 E7.74221
G1 X126.911 Y80.661 E7.76779
G1 X127.654 Y80.859 E7.79337
G1 X128.373 Y81.133 E7.81896
G1 X129.059 Y81.48 E7.84453
G1 X129.706 Y81.896 E7.87011
G1 X130.306 Y82.377 E7.89569
G1 X130.616 Y82.669 E7.90986
G1 X130.733 Y82.786 E7.91536
G1 X131.247 Y83.358 E7.94094
G1 X131.7 Y83.98 E7.96653
G1 X132.086 Y84.645 E7.9921
G1 X132.401 Y85.347 E8.01769
G1 X132.641 Y86.078 E8.04328
G1 X132.804 Y86.829 E8.06884
G1 X132.888 Y87.594 E8.09444
G1 X132.9 Y88.019 E8.10858
G1 X132.9 Y109.997 E8.83957
G1 X132.86 Y110.765 E8.86515
G1 X132.741 Y111.525 E8.89074
G1 X132.543 Y112.268 E8.91631
G1 X132.269 Y112.987 E8.9419
G1 X131.922 Y113.673 E8.96747
G1 X131.387 Y114.48 E8.99968
G1 X131.304 Y114.589 E9.00423
G1 X130.807 Y115.176 E9.02982
G1 X130.252 Y115.708 E9.05539
G1 X129.644 Y116.18 E9.08099
G1 X129.395 Y116.335 E9.09074
G1 X129.4 Y116.519 E9.09686
G1 X129.4 Y132.306 E9.62194
G1 X129.36 Y133.074 E9.64752
G1 X129.241 Y133.834 E9.67311
G1 X129.043 Y134.577 E9.69868
G1 X128.769 Y135.296 E9.72427
G1 X128.422 Y135.982 E9.74984
G1 X128.006 Y136.629 E9.77543
G1 X127.706 Y137.018 E9.79176
G1 X127.616 Y137.127 E9.79647
G1 X127.096 Y137.693 E9.82203
G1 X126.52 Y138.203 E9.84762
G1 X125.895 Y138.651 E9.87319
G1 X125.226 Y139.03 E9.89877
G1 X124.521 Y139.339 E9.92437
G1 X123.789 Y139.573 E9.94993
G1 X123.375 Y139.669 E9.96406
G1 X122.619 Y139.82 E9.98971
G1 X121.7 Y139.986 E10.02077
G1 X120.759 Y140.145 E10.05251
G1 X119.81 Y140.289 E10.08443
G1 X118.888 Y140.417 E10.11539
G1 X117.962 Y140.533 E10.14643
G1 X117.01 Y140.639 E10.17829
G1 X116.069 Y140.729 E10.20973
G1 X115.151 Y140.804 E10.24037
G1 X114.187 Y140.872 E10.27251
G1 X113.25 Y140.923 E10.30372
G1 X112.311 Y140.961 E10.33498
G1 X111.352 Y140.987 E10.36689
G1 X110.42 Y140.999 E10.39789
G1 X109.483 Y140.998 E10.42905
G1 X108.516 Y140.985 E10.46122
G1 X107.59 Y140.958 E10.49203
G1 X106.653 Y140.918 E10.52322
G1 X105.698 Y140.865 E10.55503
G1 X104.759 Y140.798 E10.58634
G1 X103.824 Y140.72 E10.61755
G1 X102.885 Y140.628 E10.64893
G1 X101.925 Y140.521 E10.68106
G1 X101.013 Y140.404 E10.71164
G1 X100.063 Y140.271 E10.74355
G1 X99.132 Y140.126 E10.77488
G1 X98.193 Y139.967 E10.80656
G1 X97.169 Y139.778 E10.84119
G1 X96.632 Y139.67 E10.85941
G1 X95.887 Y139.479 E10.88499
G1 X95.165 Y139.212 E10.9106
G1 X94.476 Y138.872 E10.93615
G1 X93.825 Y138.462 E10.96174
G1 X93.22 Y137.986 E10.98734
G1 X92.668 Y137.45 E11.01293
G1 X92.348 Y137.081 E11.02918
G1 X92.257 Y136.969 E11.03398
G1 X91.803 Y136.348 E11.05956
G1 X91.417 Y135.683 E11.08514
G1 X91.102 Y134.981 E11.11073
G1 X90.861 Y134.251 E11.1363
G1 X90.697 Y133.499 E11.1619
G1 X90.613 Y132.735 E11.18746
G1 X90.6 Y132.303 E11.20184
G1 X90.6 Y116.518 E11.72685
G1 X90.602 Y116.343 E11.73267
G1 X89.976 Y115.896 E11.75825
G1 X89.4 Y115.387 E11.78382
G1 X88.723 Y114.623 E11.81777
G1 X88.639 Y114.514 E11.82235
G1 X88.201 Y113.881 E11.84795
G1 X87.832 Y113.206 E11.87354
G1 X87.535 Y112.497 E11.8991
G1 X87.313 Y111.761 E11.92467
G1 X87.169 Y111.005 E11.95027
G1 X87.1 Y109.997 E11.98387
G1 X87.1 Y88.019 E12.71487
G1 X87.14 Y87.251 E12.74044
G1 X87.259 Y86.491 E12.76603
G1 X87.457 Y85.748 E12.7916
G1 X87.731 Y85.029 E12.8172
G1 X88.078 Y84.343 E12.84276
G1 X88.494 Y83.696 E12.86835
G1 X88.975 Y83.096 E12.89393
G1 X89.267 Y82.786 E12.90809
G0 F6000 X89.55 Y83.069
G1 F1200 X89.667 Y82.952 E12.91359
G1 X90.224 Y82.452 E12.93849
G1 X90.83 Y82.015 E12.96334
G1 X91.48 Y81.644 E12.98823
G1 X92.166 Y81.345 E13.01312
G1 X92.88 Y81.121 E13.03801
G1 X93.613 Y80.974 E13.06287
G1 X94.617 Y80.902 E13.09635
G1 X125.383 Y80.902 E14.11963
G1 X126.13 Y80.942 E14.14452
G1 X126.868 Y81.061 E14.16938
G1 X127.59 Y81.259 E14.19428
G1 X128.286 Y81.532 E14.21915
G1 X128.949 Y81.879 E14.24403
G1 X129.572 Y82.294 E14.26893
G1 X130.333 Y82.952 E14.30239
G1 X130.45 Y83.069 E14.3079
G1 X130.95 Y83.626 E14.33279
G1 X131.387 Y84.232 E14.35764
G1 X131.758 Y84.882 E14.38253
G1 X132.057 Y85.568 E14.40742
G1 X132.281 Y86.282 E14.43231
G1 X132.428 Y87.015 E14.45718
G1 X132.5 Y88.019 E14.49066
G1 X132.5 Y109.997 E15.22165
G1 X132.46 Y110.744 E15.24653
G1 X132.341 Y111.482 E15.27139
G1 X132.143 Y112.204 E15.29629
G1 X131.87 Y112.9 E15.32116
G1 X131.523 Y113.563 E15.34605
G1 X131.069 Y114.238 E15.3731
G1 X130.986 Y114.347 E15.37766
G1 X130.502 Y114.917 E15.40253
G1 X129.959 Y115.432 E15.42742
G1 X129.365 Y115.886 E15.45229
G1 X128.972 Y116.125 E15.46759
G1 X129 Y116.519 E15.48072
G1 X129 Y132.306 E16.0058
G1 X128.96 Y133.053 E16.03068
G1 X128.841 Y133.791 E16.05555
G1 X128.643 Y134.513 E16.08045
G1 X128.37 Y135.209 E16.10531
G1 X128.023 Y135.872 E16.1302
G1 X127.398 Y136.763 E16.1664
G1 X127.308 Y136.872 E16.1711
G1 X126.801 Y137.422 E16.19598
G1 X126.239 Y137.916 E16.22087
G1 X125.627 Y138.346 E16.24575
G1 X124.973 Y138.709 E16.27062
G1 X124.284 Y139 E16.2955
G1 X123.296 Y139.276 E16.32962
G1 X122.547 Y139.426 E16.35503
G1 X121.633 Y139.592 E16.38592
G1 X120.699 Y139.749 E16.41742
G1 X119.755 Y139.893 E16.44918
G1 X118.838 Y140.02 E16.47998
G1 X117.917 Y140.135 E16.51085
G1 X116.972 Y140.241 E16.54247
G1 X116.036 Y140.33 E16.57375
G1 X115.123 Y140.405 E16.60421
G1 X114.165 Y140.473 E16.63616
G1 X113.233 Y140.523 E16.6672
G1 X112.299 Y140.561 E16.69829
G1 X111.346 Y140.587 E16.73
G1 X110.42 Y140.599 E16.7608
G1 X109.488 Y140.598 E16.7918
G1 X108.528 Y140.585 E16.82373
G1 X107.607 Y140.558 E16.85438
G1 X106.675 Y140.519 E16.8854
G1 X105.726 Y140.466 E16.91702
G1 X104.792 Y140.4 E16.94816
G1 X103.863 Y140.321 E16.97917
G1 X102.929 Y140.23 E17.01038
G1 X101.975 Y140.124 E17.04231
G1 X101.068 Y140.008 E17.07272
G1 X100.124 Y139.876 E17.10442
G1 X99.198 Y139.732 E17.13559
G1 X98.265 Y139.574 E17.16707
G1 X97.248 Y139.386 E17.20146
G1 X96.711 Y139.278 E17.21968
G1 X95.986 Y139.091 E17.24459
G1 X95.286 Y138.828 E17.26946
G1 X94.618 Y138.492 E17.29433
G1 X93.989 Y138.087 E17.31921
G1 X93.407 Y137.617 E17.34409
G1 X92.658 Y136.829 E17.38025
G1 X92.567 Y136.717 E17.38505
G1 X92.127 Y136.112 E17.40993
G1 X91.754 Y135.464 E17.4348
G1 X91.453 Y134.779 E17.45968
G1 X91.226 Y134.066 E17.48457
G1 X91.076 Y133.333 E17.50946
G1 X91 Y132.303 E17.54381
G1 X91 Y116.518 E18.06882
G1 X91.021 Y116.12 E18.08207
G1 X90.766 Y115.973 E18.09186
G1 X90.162 Y115.532 E18.11674
G1 X89.608 Y115.029 E18.14163
G1 X89.039 Y114.379 E18.17036
G1 X88.955 Y114.27 E18.17494
G1 X88.531 Y113.654 E18.19981
G1 X88.175 Y112.996 E18.22469
G1 X87.891 Y112.304 E18.24957
G1 X87.683 Y111.585 E18.27446
G1 X87.552 Y110.849 E18.29933
G1 X87.5 Y109.997 E18.32772
G1 X87.5 Y88.019 E19.05871
G1 X87.54 Y87.272 E19.08359
G1 X87.659 Y86.534 E19.10845
G1 X87.857 Y85.812 E19.13335
G1 X88.13 Y85.116 E19.15822
G1 X88.477 Y84.453 E19.18311
G1 X88.892 Y83.83 E19.20801
G1 X89.55 Y83.069 E19.24147
G0 F6000 X89.833 Y83.352
G1 F1200 X89.95 Y83.235 E19.24697
G1 X90.491 Y82.751 E19.27111
G1 X91.082 Y82.328 E19.29529
G1 X91.716 Y81.974 E19.31944
G1 X92.385 Y81.691 E19.3436
G1 X93.081 Y81.483 E19.36776
G1 X93.796 Y81.353 E19.39193
G1 X94.617 Y81.302 E19.41929
G1 X125.383 Y81.302 E20.44257
G1 X126.108 Y81.342 E20.46672
G1 X126.825 Y81.461 E20.4909
G1 X127.524 Y81.659 E20.51506
G1 X128.197 Y81.932 E20.53921
G1 X128.836 Y82.277 E20.56337
G1 X129.433 Y82.691 E20.58753
G1 X130.05 Y83.235 E20.61489
G1 X130.167 Y83.352 E20.62039
G1 X130.651 Y83.893 E20.64454
G1 X131.074 Y84.484 E20.66871
G1 X131.428 Y85.118 E20.69286
G1 X131.711 Y85.787 E20.71702
G1 X131.919 Y86.483 E20.74118
G1 X132.049 Y87.198 E20.76535
G1 X132.1 Y88.019 E20.79271
G1 X132.1 Y109.997 E21.5237
G1 X132.06 Y110.722 E21.54785
G1 X131.941 Y111.439 E21.57203
G1 X131.743 Y112.138 E21.59619
G1 X131.47 Y112.811 E21.62035
G1 X131.125 Y113.45 E21.6445
G1 X130.751 Y113.995 E21.66648
G1 X130.668 Y114.104 E21.67104
G1 X130.197 Y114.657 E21.6952
G1 X129.668 Y115.155 E21.71936
G1 X129.087 Y115.591 E21.74352
G1 X128.562 Y115.903 E21.76384
G1 X128.6 Y116.519 E21.78436
G1 X128.6 Y132.306 E22.30944
G1 X128.56 Y133.031 E22.33359
G1 X128.441 Y133.748 E22.35777
G1 X128.243 Y134.447 E22.38193
G1 X127.97 Y135.12 E22.40609
G1 X127.625 Y135.759 E22.43024
G1 X127.089 Y136.508 E22.46087
G1 X126.999 Y136.617 E22.46557
G1 X126.507 Y137.151 E22.48972
G1 X125.958 Y137.627 E22.51389
G1 X125.361 Y138.041 E22.53805
G1 X124.722 Y138.386 E22.56221
G1 X124.049 Y138.659 E22.58636
G1 X123.217 Y138.884 E22.61503
G1 X122.476 Y139.033 E22.64017
G1 X121.567 Y139.197 E22.67089
G1 X120.638 Y139.354 E22.70223
G1 X119.701 Y139.497 E22.73375
G1 X118.929 Y139.603 E22.75967
G1 X118.789 Y139.624 E22.76438
G1 X117.873 Y139.738 E22.79508
G1 X116.933 Y139.842 E22.82654
G1 X116.004 Y139.932 E22.85758
G1 X115.094 Y140.006 E22.88795
G1 X114.143 Y140.073 E22.91965
G1 X113.216 Y140.123 E22.95053
G1 X112.288 Y140.161 E22.98142
G1 X111.341 Y140.187 E23.01293
G1 X110.42 Y140.199 E23.04357
G1 X109.494 Y140.198 E23.07437
G1 X108.54 Y140.185 E23.1061
G1 X107.624 Y140.158 E23.13658
G1 X106.697 Y140.119 E23.16744
G1 X105.754 Y140.067 E23.19885
G1 X104.826 Y140.001 E23.22979
G1 X103.901 Y139.923 E23.26067
G1 X102.973 Y139.833 E23.29168
G1 X102.026 Y139.727 E23.32337
G1 X101.123 Y139.611 E23.35365
G1 X100.185 Y139.48 E23.38515
G1 X99.265 Y139.337 E23.41612
G1 X98.338 Y139.181 E23.44739
G1 X97.432 Y139.014 E23.47803
G1 X96.79 Y138.885 E23.49981
G1 X96.087 Y138.703 E23.52396
G1 X95.408 Y138.445 E23.54812
G1 X94.761 Y138.114 E23.57229
G1 X94.155 Y137.713 E23.59646
G1 X93.597 Y137.249 E23.6206
G1 X92.969 Y136.577 E23.65119
G1 X92.878 Y136.465 E23.65599
G1 X92.451 Y135.877 E23.68016
G1 X92.092 Y135.245 E23.70433
G1 X91.805 Y134.578 E23.72848
G1 X91.592 Y133.884 E23.75263
G1 X91.457 Y133.17 E23.7768
G1 X91.4 Y132.303 E23.8057
G1 X91.4 Y116.518 E24.33071
G1 X91.434 Y115.899 E24.35133
G1 X90.931 Y115.603 E24.37074
G1 X90.349 Y115.168 E24.39491
G1 X89.819 Y114.672 E24.41905
G1 X89.356 Y114.135 E24.44263
G1 X89.272 Y114.026 E24.44721
G1 X88.861 Y113.427 E24.47137
G1 X88.518 Y112.786 E24.49555
G1 X88.248 Y112.112 E24.5197
G1 X88.054 Y111.412 E24.54386
G1 X87.937 Y110.695 E24.56802
G1 X87.9 Y109.997 E24.59127
G1 X87.9 Y88.019 E25.32226
G1 X87.94 Y87.294 E25.34641
G1 X88.059 Y86.577 E25.37059
G1 X88.257 Y85.878 E25.39475
G1 X88.53 Y85.205 E25.4189
G1 X88.875 Y84.566 E25.44306
G1 X89.289 Y83.969 E25.46722
G1 X89.833 Y83.352 E25.49458
G0 F6000 X90.116 Y83.635
G1 F1200 X90.233 Y83.518 E25.50008
G1 X90.758 Y83.049 E25.5235
G1 X91.333 Y82.643 E25.54691
G1 X91.951 Y82.305 E25.57034
G1 X92.602 Y82.038 E25.59374
G1 X93.28 Y81.848 E25.61716
G1 X93.975 Y81.735 E25.64058
G1 X94.617 Y81.702 E25.66196
G1 X125.383 Y81.702 E26.68524
G1 X126.086 Y81.742 E26.70866
G1 X126.78 Y81.861 E26.73208
G1 X127.455 Y82.059 E26.75548
G1 X128.104 Y82.331 E26.77888
G1 X128.718 Y82.676 E26.80231
G1 X129.289 Y83.087 E26.82571
G1 X129.767 Y83.518 E26.84711
G1 X129.884 Y83.635 E26.85262
G1 X130.353 Y84.16 E26.87603
G1 X130.759 Y84.735 E26.89944
G1 X131.097 Y85.353 E26.92287
G1 X131.364 Y86.004 E26.94627
G1 X131.554 Y86.682 E26.96969
G1 X131.667 Y87.377 E26.99311
G1 X131.7 Y88.019 E27.01449
G1 X131.7 Y109.997 E27.74548
G1 X131.66 Y110.7 E27.7689
G1 X131.541 Y111.394 E27.79232
G1 X131.343 Y112.069 E27.81572
G1 X131.071 Y112.718 E27.83912
G1 X130.726 Y113.332 E27.86255
G1 X130.433 Y113.753 E27.87961
G1 X130.35 Y113.862 E27.88417
G1 X129.892 Y114.397 E27.90759
G1 X129.377 Y114.877 E27.93101
G1 X128.81 Y115.295 E27.95443
G1 X128.2 Y115.646 E27.97784
G1 X128.134 Y115.675 E27.98024
G1 X128.167 Y115.877 E27.98705
G1 X128.2 Y116.519 E28.00843
G1 X128.2 Y132.306 E28.53351
G1 X128.16 Y133.009 E28.55693
G1 X128.041 Y133.703 E28.58035
G1 X127.843 Y134.378 E28.60374
G1 X127.571 Y135.027 E28.62715
