;FLAVOR:Marlin
;TIME:2691
;Filament used: 1.27969m
;Layer height: 0.16
;MINX:77.135
;MINY:68.403
;MINZ:0.2
;MAXX:142.733
;MAXY:134.001
;MAXZ:4.32
;Generated with Creality Slicer 4.8.2-172
M140 S60
M105
M190 S60
M104 S200
M105
M109 S200
M82 ;absolute extrusion mode

G28 ;Home

G92 E0 ;Reset Extruder
G1 Z2.0 F3000 ;Move Z Axis up
G1 X10.1 Y20 Z0.28 F5000.0 ;Move to start position
G1 X10.1 Y200.0 Z0.28 F1500.0 E15 ;Draw the first line
G1 X10.4 Y200.0 Z0.28 F5000.0 ;Move to side a little
G1 X10.4 Y20 Z0.28 F1500.0 E30 ;Draw the second line
G92 E0 ;Reset Extruder
G1 Z2.0 F3000 ;Move Z Axis up

G92 E0
G92 E0
G1 F3600 E-5
;LAYER_COUNT:28
;LAYER:0
M107
G0 F6000 X85.959 Y78.816 Z0.2
;TYPE:SKIRT
G1 F3600 E0
G1 F1200 X86.154 Y78.61 E0.00943
G1 X86.981 Y77.769 E0.04866
G1 X87.505 Y77.269 E0.07275
G1 X87.683 Y77.104 E0.08083
G1 X88.311 Y76.541 E0.10888
G1 X88.489 Y76.386 E0.11673
G1 X89.102 Y75.869 E0.1434
G1 X89.295 Y75.712 E0.15168
G1 X89.934 Y75.207 E0.17876
G1 X90.153 Y75.04 E0.18792
G1 X90.876 Y74.509 E0.21776
G1 X91.076 Y74.367 E0.22592
G1 X91.715 Y73.928 E0.2517
G1 X91.937 Y73.781 E0.26056
G1 X92.658 Y73.321 E0.28901
G1 X92.879 Y73.185 E0.29764
G1 X93.568 Y72.777 E0.32427
G1 X93.779 Y72.656 E0.33236
G1 X94.509 Y72.254 E0.36008
G1 X94.758 Y72.123 E0.36944
G1 X95.513 Y71.742 E0.39756
G1 X95.747 Y71.629 E0.40621
G1 X96.487 Y71.286 E0.43333
G1 X96.696 Y71.193 E0.44094
G1 X97.373 Y70.903 E0.46544
G1 X97.62 Y70.815 E0.47416
G1 X97.616 Y70.806 E0.47449
G1 X98.447 Y70.48 E0.50418
G1 X98.733 Y70.374 E0.51432
G1 X99.489 Y70.111 E0.54094
G1 X99.718 Y70.035 E0.54897
G1 X100.528 Y69.781 E0.5772
G1 X100.781 Y69.707 E0.58597
G1 X101.5 Y69.508 E0.61078
G1 X101.797 Y69.428 E0.62101
G1 X102.635 Y69.226 E0.64968
G1 X102.856 Y69.176 E0.65722
G1 X103.654 Y69.008 E0.68434
G1 X103.942 Y68.953 E0.6941
G1 X104.717 Y68.82 E0.72025
G1 X104.974 Y68.781 E0.7289
G1 X105.745 Y68.675 E0.75478
G1 X105.973 Y68.647 E0.76242
G1 X106.894 Y68.548 E0.79323
G1 X107.144 Y68.525 E0.80158
G1 X107.957 Y68.464 E0.8287
G1 X108.21 Y68.449 E0.83713
G1 X108.988 Y68.416 E0.86303
G1 X109.266 Y68.409 E0.87227
G1 X110.156 Y68.403 E0.90188
G1 X110.443 Y68.407 E0.91142
G1 X111.176 Y68.429 E0.93581
G1 X111.368 Y68.437 E0.94221
G1 X112.227 Y68.484 E0.97082
G1 X112.502 Y68.504 E0.97999
G1 X113.367 Y68.582 E1.00888
G1 X113.649 Y68.612 E1.01831
G1 X114.444 Y68.713 E1.04496
G1 X114.711 Y68.752 E1.05394
G1 X115.789 Y68.927 E1.09026
G1 X116.161 Y68.997 E1.10285
G1 X117.205 Y69.219 E1.13835
G1 X117.481 Y69.283 E1.14777
G1 X118.286 Y69.485 E1.17538
G1 X118.502 Y69.542 E1.18281
G1 X119.301 Y69.767 E1.21042
G1 X119.587 Y69.854 E1.22036
G1 X120.329 Y70.094 E1.2463
G1 X120.562 Y70.173 E1.25448
G1 X121.34 Y70.452 E1.28197
G1 X121.567 Y70.537 E1.29003
G1 X122.389 Y70.861 E1.31942
G1 X122.637 Y70.964 E1.32835
G1 X123.385 Y71.289 E1.35548
G1 X123.382 Y71.297 E1.35576
G1 X123.631 Y71.397 E1.36469
G1 X124.284 Y71.706 E1.38871
G1 X124.534 Y71.829 E1.39798
G1 X125.272 Y72.211 E1.42562
G1 X125.469 Y72.317 E1.43306
G1 X126.23 Y72.739 E1.462
G1 X126.455 Y72.868 E1.47063
G1 X127.213 Y73.322 E1.50002
G1 X127.451 Y73.471 E1.50936
G1 X128.089 Y73.885 E1.53465
G1 X128.288 Y74.018 E1.54261
G1 X128.947 Y74.475 E1.56929
G1 X129.161 Y74.629 E1.57805
G1 X129.87 Y75.157 E1.60746
G1 X130.082 Y75.321 E1.61637
G1 X130.671 Y75.792 E1.64146
G1 X130.867 Y75.954 E1.64991
G1 X131.534 Y76.524 E1.67909
G1 X131.693 Y76.664 E1.68614
G1 X132.309 Y77.22 E1.71374
G1 X132.526 Y77.424 E1.72365
G1 X133.112 Y77.995 E1.75086
G1 X133.295 Y78.179 E1.75949
G1 X133.897 Y78.806 E1.7884
G1 X134.072 Y78.994 E1.79694
G1 X134.56 Y79.537 E1.82123
G1 X134.717 Y79.717 E1.82917
G1 X135.251 Y80.349 E1.85669
G1 X135.418 Y80.553 E1.86546
G1 X135.955 Y81.234 E1.8943
G1 X136.115 Y81.444 E1.90308
G1 X136.606 Y82.112 E1.93066
G1 X136.764 Y82.336 E1.93977
G1 X137.2 Y82.975 E1.9655
G1 X137.33 Y83.172 E1.97335
G1 X137.843 Y83.975 E2.00505
G1 X137.979 Y84.195 E2.01365
G1 X138.355 Y84.829 E2.03817
G1 X138.484 Y85.055 E2.04682
G1 X139.013 Y86.021 E2.08345
G1 X139.367 Y86.72 E2.10951
G1 X139.486 Y86.966 E2.1186
G1 X139.863 Y87.78 E2.14844
G1 X139.961 Y88.001 E2.15648
G1 X140.26 Y88.703 E2.18186
G1 X140.361 Y88.951 E2.19076
G1 X140.642 Y89.679 E2.21672
G1 X140.724 Y89.901 E2.22459
G1 X141.033 Y90.78 E2.25558
G1 X141.126 Y91.062 E2.26546
G1 X141.345 Y91.77 E2.2901
G1 X141.339 Y91.772 E2.29031
G1 X141.428 Y92.04 E2.29971
G1 X141.66 Y92.879 E2.32866
G1 X141.729 Y93.147 E2.33786
G1 X141.918 Y93.939 E2.36495
G1 X141.964 Y94.146 E2.372
G1 X142.11 Y94.841 E2.39562
G1 X142.159 Y95.095 E2.40422
G1 X142.308 Y95.943 E2.43286
G1 X142.351 Y96.216 E2.44205
G1 X142.465 Y97.034 E2.46952
G1 X142.496 Y97.279 E2.47773
G1 X142.585 Y98.109 E2.5055
G1 X142.608 Y98.37 E2.51421
G1 X142.675 Y99.282 E2.54463
G1 X142.689 Y99.522 E2.55262
G1 X142.72 Y100.251 E2.57689
G1 X142.727 Y100.529 E2.58614
G1 X142.733 Y101.418 E2.61571
G1 X142.73 Y101.695 E2.62492
G1 X142.708 Y102.462 E2.65045
G1 X142.698 Y102.686 E2.6579
G1 X142.651 Y103.503 E2.68512
G1 X142.631 Y103.771 E2.69406
G1 X142.548 Y104.671 E2.72412
G1 X142.52 Y104.926 E2.73265
G1 X142.425 Y105.683 E2.75803
G1 X142.388 Y105.943 E2.76676
G1 X142.225 Y106.963 E2.80112
G1 X142.159 Y107.325 E2.81336
G1 X141.937 Y108.389 E2.84951
G1 X141.871 Y108.677 E2.85934
G1 X141.665 Y109.506 E2.88775
G1 X141.604 Y109.736 E2.89566
G1 X141.392 Y110.49 E2.92171
G1 X141.221 Y111.022 E2.9403
G1 X140.323 Y113.515 E3.02843
G1 X140.143 Y113.971 E3.04474
G1 X139.846 Y114.657 E3.0696
G1 X139.741 Y114.889 E3.07807
G1 X139.401 Y115.609 E3.10455
G1 X139.275 Y115.863 E3.11398
G1 X138.921 Y116.547 E3.1396
G1 X138.808 Y116.759 E3.14759
G1 X138.394 Y117.502 E3.17588
G1 X138.277 Y117.703 E3.18361
G1 X137.84 Y118.435 E3.21197
G1 X137.697 Y118.666 E3.22101
G1 X137.244 Y119.368 E3.24879
G1 X137.091 Y119.596 E3.25793
G1 X136.644 Y120.238 E3.28394
G1 X136.492 Y120.449 E3.29259
G1 X135.999 Y121.109 E3.31999
G1 X135.874 Y121.271 E3.3268
G1 X135.359 Y121.924 E3.35446
G1 X135.161 Y122.166 E3.36486
G1 X134.621 Y122.797 E3.39248
G1 X134.458 Y122.981 E3.40066
G1 X133.899 Y123.594 E3.42825
G1 X133.734 Y123.77 E3.43628
G1 X133.147 Y124.375 E3.46431
G1 X132.958 Y124.563 E3.47318
G1 X132.37 Y125.129 E3.50032
G1 X132.166 Y125.319 E3.5096
G1 X131.561 Y125.861 E3.53661
G1 X131.386 Y126.012 E3.5443
G1 X130.752 Y126.547 E3.57189
G1 X130.545 Y126.716 E3.58078
G1 X129.907 Y127.218 E3.60778
G1 X129.702 Y127.374 E3.61635
G1 X129.005 Y127.886 E3.64511
G1 X128.797 Y128.034 E3.65361
G1 X128.139 Y128.485 E3.68014
G1 X127.928 Y128.625 E3.68856
G1 X127.272 Y129.044 E3.71445
G1 X127.057 Y129.176 E3.72284
G1 X126.308 Y129.621 E3.75182
G1 X126.094 Y129.743 E3.76001
G1 X125.366 Y130.145 E3.78767
G1 X125.119 Y130.276 E3.79697
G1 X124.392 Y130.644 E3.82407
G1 X124.155 Y130.759 E3.83283
G1 X123.41 Y131.105 E3.86015
G1 X123.178 Y131.208 E3.8686
G1 X122.426 Y131.528 E3.89578
G1 X122.187 Y131.625 E3.90436
G1 X121.404 Y131.928 E3.93228
G1 X121.164 Y132.017 E3.94079
G1 X120.349 Y132.302 E3.96951
G1 X120.108 Y132.382 E3.97796
G1 X119.33 Y132.626 E4.00508
G1 X119.08 Y132.7 E4.01375
G1 X118.308 Y132.914 E4.04039
G1 X118.042 Y132.982 E4.04952
G1 X117.245 Y133.173 E4.07678
G1 X117.043 Y133.219 E4.08367
G1 X116.198 Y133.398 E4.1124
G1 X115.912 Y133.453 E4.12209
G1 X115.207 Y133.575 E4.14589
G1 X114.955 Y133.614 E4.15437
G1 X114.052 Y133.74 E4.18469
G1 X113.796 Y133.772 E4.19327
G1 X113.013 Y133.855 E4.21946
G1 X112.754 Y133.878 E4.22811
G1 X111.869 Y133.942 E4.25762
G1 X111.646 Y133.955 E4.26505
G1 X110.89 Y133.988 E4.29022
G1 X110.602 Y133.995 E4.2998
G1 X109.708 Y134.001 E4.32954
G1 X109.431 Y133.998 E4.33875
G1 X108.669 Y133.976 E4.36411
G1 X108.457 Y133.967 E4.37116
G1 X107.566 Y133.917 E4.40084
G1 X107.265 Y133.894 E4.41089
G1 X106.465 Y133.818 E4.43761
G1 X106.228 Y133.792 E4.44554
G1 X105.482 Y133.698 E4.47055
G1 X105.224 Y133.661 E4.47922
G1 X104.024 Y133.468 E4.51965
G1 X103.677 Y133.401 E4.5314
G1 X102.713 Y133.196 E4.56418
G1 X102.443 Y133.134 E4.57339
G1 X101.611 Y132.926 E4.60192
G1 X101.369 Y132.861 E4.61025
G1 X100.585 Y132.638 E4.63736
G1 X100.079 Y132.476 E4.65503
G1 X97.596 Y131.583 E4.7428
G1 X97.151 Y131.407 E4.75871
G1 X96.503 Y131.128 E4.78218
G1 X96.237 Y131.007 E4.7919
G1 X95.556 Y130.683 E4.81698
G1 X95.329 Y130.571 E4.8254
G1 X94.529 Y130.158 E4.85534
G1 X94.302 Y130.036 E4.86392
G1 X93.613 Y129.651 E4.89017
G1 X93.398 Y129.526 E4.89844
G1 X92.683 Y129.096 E4.92619
G1 X92.473 Y128.965 E4.93442
G1 X91.765 Y128.508 E4.96245
G1 X91.543 Y128.36 E4.97132
G1 X90.864 Y127.888 E4.99883
G1 X90.658 Y127.74 E5.00726
G1 X90.032 Y127.274 E5.03322
G1 X89.816 Y127.107 E5.0423
G1 X89.145 Y126.57 E5.07089
G1 X88.957 Y126.414 E5.07901
G1 X88.331 Y125.88 E5.10638
G1 X88.155 Y125.726 E5.11416
G1 X87.558 Y125.185 E5.14095
G1 X87.347 Y124.986 E5.1506
G1 X86.715 Y124.369 E5.17998
G1 X86.539 Y124.191 E5.1883
G1 X86.028 Y123.659 E5.21284
G1 X85.842 Y123.459 E5.22192
G1 X85.251 Y122.799 E5.25139
G1 X85.1 Y122.625 E5.25905
G1 X84.561 Y121.986 E5.28685
G1 X84.389 Y121.776 E5.29588
G1 X83.909 Y121.165 E5.32173
G1 X83.755 Y120.962 E5.3302
G1 X83.258 Y120.285 E5.35813
G1 X83.12 Y120.09 E5.36608
G1 X82.637 Y119.388 E5.39442
G1 X82.47 Y119.134 E5.40453
G1 X82.044 Y118.46 E5.43105
G1 X81.935 Y118.283 E5.43796
G1 X81.526 Y117.596 E5.46456
G1 X81.394 Y117.365 E5.47341
G1 X80.987 Y116.625 E5.5015
G1 X80.855 Y116.376 E5.51087
G1 X80.464 Y115.6 E5.53977
G1 X80.358 Y115.381 E5.54786
G1 X80.028 Y114.672 E5.57387
G1 X79.921 Y114.431 E5.58264
G1 X79.613 Y113.706 E5.60884
G1 X79.522 Y113.481 E5.61692
G1 X79.201 Y112.655 E5.64639
G1 X79.108 Y112.405 E5.65526
G1 X78.839 Y111.636 E5.68236
G1 X78.753 Y111.374 E5.69153
G1 X78.503 Y110.569 E5.71957
G1 X78.433 Y110.33 E5.72785
G1 X78.206 Y109.507 E5.75624
G1 X78.146 Y109.277 E5.76415
G1 X77.965 Y108.533 E5.78962
G1 X77.91 Y108.288 E5.79797
G1 X77.737 Y107.462 E5.82604
G1 X77.682 Y107.173 E5.83582
G1 X77.55 Y106.398 E5.86197
G1 X77.516 Y106.184 E5.86918
G1 X77.4 Y105.367 E5.89662
G1 X77.365 Y105.083 E5.90614
G1 X77.282 Y104.29 E5.93266
G1 X77.261 Y104.047 E5.94077
G1 X77.195 Y103.144 E5.97089
G1 X77.181 Y102.913 E5.97858
G1 X77.148 Y102.152 E6.00392
G1 X77.141 Y101.867 E6.0134
G1 X77.135 Y100.983 E6.0428
G1 X77.138 Y100.705 E6.05205
G1 X77.16 Y99.941 E6.07747
G1 X77.169 Y99.729 E6.08453
G1 X77.217 Y98.874 E6.11301
G1 X77.237 Y98.6 E6.12215
G1 X77.311 Y97.791 E6.14917
G1 X77.341 Y97.517 E6.15834
G1 X77.445 Y96.7 E6.18573
G1 X77.481 Y96.455 E6.19396
G1 X77.653 Y95.378 E6.23024
G1 X77.729 Y94.969 E6.24408
G1 X77.963 Y93.88 E6.28112
G1 X78.016 Y93.65 E6.28897
G1 X78.209 Y92.868 E6.31576
G1 X78.285 Y92.584 E6.32554
G1 X78.515 Y91.783 E6.35326
G1 X78.584 Y91.555 E6.36118
G1 X78.818 Y90.825 E6.38668
G1 X78.9 Y90.583 E6.39518
G1 X79.186 Y89.782 E6.42347
G1 X79.28 Y89.532 E6.43235
G1 X79.572 Y88.795 E6.45872
G1 X79.671 Y88.558 E6.46726
G1 X80.011 Y87.776 E6.49562
G1 X80.017 Y87.779 E6.49584
G1 X80.12 Y87.527 E6.5049
G1 X80.45 Y86.831 E6.53052
G1 X80.561 Y86.606 E6.53886
G1 X80.961 Y85.828 E6.56796
G1 X81.083 Y85.601 E6.57653
G1 X81.49 Y84.87 E6.60436
G1 X81.627 Y84.633 E6.61346
G1 X82.061 Y83.914 E6.64139
G1 X82.189 Y83.709 E6.64943
G1 X82.599 Y83.075 E6.67455
G1 X82.741 Y82.864 E6.683
G1 X83.217 Y82.178 E6.71078
G1 X83.368 Y81.968 E6.71938
G1 X83.895 Y81.26 E6.74873
G1 X84.044 Y81.065 E6.7569
G1 X84.523 Y80.462 E6.78251
G1 X84.689 Y80.261 E6.79118
G1 X85.257 Y79.593 E6.82034
G1 X85.434 Y79.392 E6.82925
G1 X85.959 Y78.816 E6.85517
G0 F6000 X86.255 Y79.085
G1 F1200 X86.44 Y78.89 E6.86411
G1 X87.257 Y78.058 E6.9029
G1 X87.781 Y77.558 E6.92699
G1 X87.95 Y77.402 E6.93464
G1 X88.578 Y76.839 E6.96269
G1 X88.747 Y76.692 E6.97014
G1 X89.36 Y76.175 E6.99681
G1 X89.543 Y76.026 E7.00466
G1 X90.182 Y75.521 E7.03175
G1 X90.39 Y75.363 E7.04044
G1 X91.113 Y74.832 E7.07027
G1 X91.303 Y74.697 E7.07802
G1 X91.942 Y74.258 E7.10381
G1 X92.152 Y74.119 E7.11219
G1 X92.873 Y73.659 E7.14063
G1 X93.082 Y73.53 E7.1488
G1 X93.771 Y73.122 E7.17543
G1 X93.972 Y73.007 E7.18313
G1 X94.702 Y72.605 E7.21085
G1 X94.938 Y72.481 E7.21972
G1 X95.693 Y72.1 E7.24785
G1 X95.915 Y71.992 E7.25606
G1 X96.655 Y71.649 E7.28319
G1 X96.853 Y71.561 E7.29039
G1 X97.53 Y71.271 E7.31489
G1 X97.767 Y71.187 E7.32325
G1 X97.763 Y71.178 E7.32358
G1 X98.594 Y70.852 E7.35327
G1 X98.865 Y70.752 E7.36288
G1 X99.621 Y70.489 E7.3895
G1 X99.838 Y70.417 E7.3971
G1 X100.648 Y70.163 E7.42534
G1 X100.888 Y70.092 E7.43366
G1 X101.607 Y69.893 E7.45848
G1 X101.891 Y69.817 E7.46825
G1 X102.729 Y69.615 E7.49692
G1 X102.939 Y69.568 E7.50408
G1 X103.737 Y69.4 E7.53121
G1 X104.009 Y69.348 E7.54042
G1 X104.784 Y69.215 E7.56657
G1 X105.028 Y69.177 E7.57478
G1 X105.799 Y69.071 E7.60067
G1 X106.016 Y69.044 E7.60794
G1 X106.937 Y68.945 E7.63875
G1 X107.174 Y68.924 E7.64666
G1 X107.987 Y68.863 E7.67378
G1 X108.227 Y68.849 E7.68178
G1 X109.005 Y68.816 E7.70768
G1 X109.269 Y68.809 E7.71646
G1 X110.159 Y68.803 E7.74606
G1 X110.431 Y68.806 E7.75511
G1 X111.164 Y68.828 E7.7795
G1 X111.346 Y68.836 E7.78556
G1 X112.205 Y68.883 E7.81417
G1 X112.466 Y68.902 E7.82288
G1 X113.331 Y68.98 E7.85176
G1 X113.599 Y69.009 E7.86073
G1 X114.394 Y69.11 E7.88738
G1 X114.647 Y69.147 E7.89589
G1 X115.725 Y69.322 E7.93221
G1 X116.078 Y69.388 E7.94415
G1 X117.122 Y69.61 E7.97965
G1 X117.384 Y69.671 E7.9886
G1 X118.189 Y69.873 E8.01621
G1 X118.394 Y69.927 E8.02326
G1 X119.193 Y70.152 E8.05087
G1 X119.464 Y70.234 E8.06028
G1 X120.206 Y70.474 E8.08622
G1 X120.427 Y70.549 E8.09398
G1 X121.205 Y70.828 E8.12147
G1 X121.421 Y70.909 E8.12915
G1 X122.243 Y71.233 E8.15853
G1 X122.478 Y71.331 E8.167
G1 X123.226 Y71.656 E8.19413
G1 X123.223 Y71.663 E8.19438
G1 X123.46 Y71.758 E8.20287
G1 X124.113 Y72.067 E8.2269
G1 X124.35 Y72.184 E8.23569
G1 X125.088 Y72.566 E8.26333
G1 X125.275 Y72.666 E8.27038
G1 X126.036 Y73.088 E8.29933
G1 X126.249 Y73.212 E8.30752
G1 X127.007 Y73.666 E8.33691
G1 X127.233 Y73.806 E8.34575
G1 X127.871 Y74.22 E8.37105
G1 X128.06 Y74.347 E8.37862
G1 X128.719 Y74.804 E8.4053
G1 X128.922 Y74.95 E8.41361
G1 X129.631 Y75.478 E8.44301
G1 X129.833 Y75.634 E8.4515
G1 X130.422 Y76.105 E8.47659
G1 X130.608 Y76.258 E8.4846
G1 X131.275 Y76.828 E8.51378
G1 X131.425 Y76.961 E8.52045
G1 X132.041 Y77.517 E8.54805
G1 X132.247 Y77.71 E8.55743
G1 X132.833 Y78.281 E8.58465
G1 X133.007 Y78.456 E8.59286
G1 X133.609 Y79.083 E8.62177
G1 X133.775 Y79.262 E8.62989
G1 X134.263 Y79.805 E8.65417
G1 X134.411 Y79.975 E8.66166
G1 X134.945 Y80.607 E8.68918
G1 X135.104 Y80.801 E8.69753
G1 X135.641 Y81.482 E8.72637
G1 X135.793 Y81.681 E8.7347
G1 X136.284 Y82.349 E8.76227
G1 X136.434 Y82.561 E8.77091
G1 X136.87 Y83.2 E8.79664
G1 X136.993 Y83.387 E8.80409
G1 X137.506 Y84.19 E8.83578
G1 X137.635 Y84.399 E8.84395
G1 X138.011 Y85.033 E8.86846
G1 X138.133 Y85.248 E8.87669
G1 X138.447 Y85.82 E8.89839
G1 X138.458 Y85.837 E8.89906
G1 X138.656 Y86.202 E8.91287
G1 X139.01 Y86.901 E8.93893
G1 X139.123 Y87.134 E8.94755
G1 X139.5 Y87.948 E8.97738
G1 X139.593 Y88.158 E8.98502
G1 X139.892 Y88.86 E9.0104
G1 X139.988 Y89.095 E9.01884
G1 X140.269 Y89.823 E9.0448
G1 X140.346 Y90.034 E9.05227
G1 X140.655 Y90.913 E9.08326
G1 X140.744 Y91.18 E9.09262
G1 X140.963 Y91.888 E9.11727
G1 X140.957 Y91.89 E9.11748
G1 X141.042 Y92.147 E9.12648
G1 X141.274 Y92.986 E9.15543
G1 X141.34 Y93.24 E9.16416
G1 X141.529 Y94.032 E9.19124
G1 X141.573 Y94.229 E9.19796
G1 X141.719 Y94.924 E9.22158
G1 X141.765 Y95.164 E9.22971
G1 X141.914 Y96.012 E9.25834
G1 X141.955 Y96.272 E9.2671
G1 X142.069 Y97.09 E9.29457
G1 X142.098 Y97.322 E9.30234
G1 X142.187 Y98.152 E9.33011
G1 X142.209 Y98.399 E9.33835
G1 X142.276 Y99.311 E9.36877
G1 X142.289 Y99.539 E9.37637
G1 X142.32 Y100.268 E9.40063
G1 X142.327 Y100.532 E9.40942
G1 X142.333 Y101.421 E9.43899
G1 X142.33 Y101.683 E9.4477
G1 X142.308 Y102.45 E9.47322
G1 X142.299 Y102.663 E9.48031
G1 X142.252 Y103.48 E9.50753
G1 X142.233 Y103.735 E9.51604
G1 X142.15 Y104.635 E9.5461
G1 X142.123 Y104.876 E9.55416
G1 X142.028 Y105.633 E9.57954
G1 X141.993 Y105.88 E9.58784
G1 X141.83 Y106.9 E9.62219
G1 X141.767 Y107.243 E9.63379
G1 X141.545 Y108.307 E9.66994
G1 X141.483 Y108.581 E9.67929
G1 X141.277 Y109.41 E9.7077
