;FLAVOR:Marlin
;TIME:4189
;Filament used: 3.11711m
;Layer height: 0.16
;MINX:42.204
;MINY:42.202
;MINZ:0.2
;MAXX:177.795
;MAXY:177.798
;MAXZ:6.8
;Generated with Creality Slicer 4.8.2-172
M140 S60
M105
M190 S60
M104 S200
M105
M109 S200
M82 ;absolute extrusion mode

G28 ;Home

G92 E0 ;Reset Extruder
G1 Z2.0 F3000 ;Move Z Axis up
G1 X10.1 Y20 Z0.28 F5000.0 ;Move to start position
G1 X10.1 Y200.0 Z0.28 F1500.0 E15 ;Draw the first line
G1 X10.4 Y200.0 Z0.28 F5000.0 ;Move to side a little
G1 X10.4 Y20 Z0.28 F1500.0 E30 ;Draw the second line
G92 E0 ;Reset Extruder
G1 Z2.0 F3000 ;Move Z Axis up

G92 E0
G92 E0
G1 F3600 E-5
;LAYER_COUNT:36
;LAYER:0
M107
G0 F6000 X62.165 Y61.949 Z0.2
;TYPE:SKIRT
G1 F3600 E0
G1 F1200 X62.353 Y61.762 E0.00882
G1 X63.804 Y60.371 E0.07567
G1 X63.992 Y60.198 E0.08417
G1 X65.497 Y58.847 E0.15144
G1 X65.704 Y58.667 E0.16056
G1 X67.246 Y57.378 E0.22741
G1 X67.444 Y57.218 E0.23587
G1 X69.032 Y55.976 E0.30293
G1 X69.236 Y55.822 E0.31143
G1 X70.869 Y54.629 E0.37869
G1 X71.094 Y54.47 E0.38786
G1 X72.757 Y53.343 E0.45467
G1 X72.97 Y53.204 E0.46313
G1 X74.675 Y52.128 E0.53019
G1 X74.906 Y51.987 E0.53919
G1 X76.652 Y50.968 E0.60643
G1 X76.869 Y50.846 E0.61471
G1 X78.636 Y49.889 E0.68155
G1 X78.872 Y49.767 E0.69038
G1 X80.678 Y48.867 E0.75749
G1 X80.92 Y48.751 E0.76642
G1 X82.753 Y47.915 E0.83343
G1 X82.995 Y47.81 E0.8422
G1 X84.861 Y47.034 E0.90942
G1 X85.092 Y46.942 E0.91769
G1 X86.979 Y46.227 E0.9848
G1 X87.236 Y46.135 E0.99388
G1 X89.139 Y45.489 E1.06073
G1 X89.381 Y45.411 E1.06918
G1 X91.309 Y44.826 E1.13619
G1 X91.567 Y44.753 E1.14511
G1 X93.516 Y44.234 E1.2122
G1 X93.771 Y44.17 E1.22094
G1 X95.741 Y43.716 E1.28818
G1 X95.995 Y43.662 E1.29682
G1 X97.973 Y43.275 E1.36385
G1 X98.235 Y43.229 E1.3727
G1 X100.223 Y42.91 E1.43967
G1 X100.474 Y42.873 E1.44811
G1 X102.47 Y42.619 E1.51503
G1 X102.736 Y42.59 E1.52393
G1 X104.744 Y42.404 E1.591
G1 X105.008 Y42.384 E1.59981
G1 X107.028 Y42.266 E1.66711
G1 X107.285 Y42.256 E1.67566
G1 X109.297 Y42.205 E1.7426
G1 X109.561 Y42.202 E1.75138
G1 X111.573 Y42.219 E1.8183
G1 X111.835 Y42.226 E1.82702
G1 X113.854 Y42.311 E1.89423
G1 X114.116 Y42.326 E1.90296
G1 X116.12 Y42.478 E1.96981
G1 X116.382 Y42.503 E1.97856
G1 X118.392 Y42.724 E2.04582
G1 X118.65 Y42.756 E2.05446
G1 X120.639 Y43.042 E2.1213
G1 X120.895 Y43.083 E2.12992
G1 X122.88 Y43.436 E2.19698
G1 X123.141 Y43.488 E2.20583
G1 X125.119 Y43.91 E2.2731
G1 X125.371 Y43.968 E2.2817
G1 X127.329 Y44.454 E2.3488
G1 X127.583 Y44.521 E2.35754
G1 X129.521 Y45.072 E2.42455
G1 X129.778 Y45.15 E2.43348
G1 X131.689 Y45.765 E2.50025
G1 X131.935 Y45.849 E2.5089
G1 X133.834 Y46.531 E2.57601
G1 X134.076 Y46.622 E2.58461
G1 X135.955 Y47.368 E2.65185
G1 X136.196 Y47.469 E2.66054
G1 X138.039 Y48.273 E2.72742
G1 X138.276 Y48.381 E2.73608
G1 X140.101 Y49.251 E2.80332
G1 X140.34 Y49.37 E2.8122
G1 X142.123 Y50.296 E2.87903
G1 X142.354 Y50.421 E2.88776
G1 X144.111 Y51.41 E2.95482
G1 X144.335 Y51.541 E2.96345
G1 X146.063 Y52.591 E3.03071
G1 X146.281 Y52.728 E3.03927
G1 X147.962 Y53.827 E3.10607
G1 X148.186 Y53.979 E3.11507
G1 X149.834 Y55.14 E3.18212
G1 X150.042 Y55.292 E3.19069
G1 X151.655 Y56.51 E3.25791
G1 X151.86 Y56.67 E3.26656
G1 X153.424 Y57.935 E3.33347
G1 X153.628 Y58.106 E3.34232
G1 X155.151 Y59.426 E3.40935
G1 X155.345 Y59.6 E3.41802
G1 X156.824 Y60.971 E3.4851
G1 X157.019 Y61.158 E3.49408
G1 X158.453 Y62.583 E3.56132
G1 X158.624 Y62.758 E3.56946
G1 X160.004 Y64.218 E3.63628
G1 X160.191 Y64.424 E3.64553
G1 X161.524 Y65.939 E3.71265
G1 X161.686 Y66.129 E3.72096
G1 X162.968 Y67.684 E3.78799
G1 X163.134 Y67.893 E3.79686
G1 X164.366 Y69.496 E3.86411
G1 X164.525 Y69.709 E3.87295
G1 X165.698 Y71.348 E3.93998
G1 X165.844 Y71.56 E3.94854
G1 X166.959 Y73.232 E4.01539
G1 X167.101 Y73.454 E4.02415
G1 X168.163 Y75.169 E4.09124
G1 X168.3 Y75.397 E4.10009
G1 X169.301 Y77.144 E4.16706
G1 X169.424 Y77.368 E4.17556
G1 X170.369 Y79.15 E4.24265
G1 X170.49 Y79.387 E4.2515
G1 X171.373 Y81.199 E4.31854
G1 X171.481 Y81.432 E4.32708
G1 X172.307 Y83.279 E4.39438
G1 X172.413 Y83.526 E4.40332
G1 X173.169 Y85.386 E4.47009
G1 X173.263 Y85.628 E4.47873
G1 X173.96 Y87.521 E4.54582
G1 X174.046 Y87.769 E4.55455
G1 X174.678 Y89.682 E4.62156
G1 X174.756 Y89.932 E4.63027
G1 X175.324 Y91.867 E4.69735
G1 X175.393 Y92.116 E4.70594
G1 X175.898 Y94.074 E4.77319
G1 X175.96 Y94.334 E4.78208
G1 X176.395 Y96.297 E4.84896
G1 X176.447 Y96.552 E4.85761
G1 X176.817 Y98.531 E4.92458
G1 X176.861 Y98.788 E4.93325
G1 X177.165 Y100.782 E5.00034
G1 X177.2 Y101.044 E5.00913
G1 X177.437 Y103.053 E5.07641
G1 X177.463 Y103.311 E5.08503
G1 X177.632 Y105.313 E5.15186
G1 X177.65 Y105.574 E5.16056
G1 X177.752 Y107.586 E5.22757
G1 X177.761 Y107.85 E5.23635
G1 X177.795 Y109.868 E5.30348
G1 X177.795 Y110.131 E5.31223
G1 X177.761 Y112.145 E5.37922
G1 X177.752 Y112.41 E5.38804
G1 X177.649 Y114.431 E5.45535
G1 X177.632 Y114.686 E5.46385
G1 X177.464 Y116.689 E5.5307
G1 X177.437 Y116.951 E5.53946
G1 X177.201 Y118.952 E5.60648
G1 X177.166 Y119.215 E5.6153
G1 X176.862 Y121.207 E5.68232
G1 X176.819 Y121.457 E5.69076
G1 X176.449 Y123.446 E5.75805
G1 X176.395 Y123.712 E5.76708
G1 X175.959 Y125.673 E5.83389
G1 X175.898 Y125.929 E5.84265
G1 X175.394 Y127.882 E5.90973
G1 X175.325 Y128.131 E5.91832
G1 X174.757 Y130.065 E5.98537
G1 X174.68 Y130.312 E5.99397
G1 X174.048 Y132.227 E6.06104
G1 X173.959 Y132.48 E6.06996
G1 X173.26 Y134.376 E6.13717
G1 X173.166 Y134.619 E6.14584
G1 X172.408 Y136.481 E6.21271
G1 X172.306 Y136.722 E6.22141
G1 X171.484 Y138.562 E6.28844
G1 X171.376 Y138.792 E6.29689
G1 X170.494 Y140.605 E6.36395
G1 X170.371 Y140.847 E6.37298
G1 X169.424 Y142.633 E6.44021
G1 X169.3 Y142.859 E6.44879
G1 X168.3 Y144.603 E6.51565
G1 X168.165 Y144.828 E6.52438
G1 X167.104 Y146.542 E6.59142
G1 X166.963 Y146.762 E6.60012
G1 X165.845 Y148.44 E6.66718
G1 X165.694 Y148.659 E6.67603
G1 X164.52 Y150.297 E6.74305
G1 X164.366 Y150.504 E6.75164
G1 X163.134 Y152.108 E6.81891
G1 X162.968 Y152.317 E6.82778
G1 X161.69 Y153.868 E6.89463
G1 X161.523 Y154.063 E6.90316
G1 X160.186 Y155.581 E6.97044
G1 X160.007 Y155.778 E6.9793
G1 X158.629 Y157.239 E7.0461
G1 X158.445 Y157.428 E7.05487
G1 X157.013 Y158.847 E7.12192
G1 X156.83 Y159.022 E7.13034
G1 X155.348 Y160.398 E7.1976
G1 X155.147 Y160.579 E7.2066
G1 X153.627 Y161.895 E7.27347
G1 X153.429 Y162.06 E7.28204
G1 X151.863 Y163.328 E7.34906
G1 X151.652 Y163.493 E7.35797
G1 X150.036 Y164.712 E7.4253
G1 X149.827 Y164.864 E7.43389
G1 X148.181 Y166.022 E7.50083
G1 X147.966 Y166.169 E7.50949
G1 X146.283 Y167.271 E7.5764
G1 X146.059 Y167.412 E7.5852
G1 X144.33 Y168.462 E7.65248
G1 X144.109 Y168.591 E7.661
G1 X142.353 Y169.58 E7.72803
G1 X142.117 Y169.708 E7.73696
G1 X140.334 Y170.633 E7.80376
G1 X140.103 Y170.748 E7.81235
G1 X138.277 Y171.62 E7.87965
G1 X138.028 Y171.733 E7.88874
G1 X136.187 Y172.534 E7.95552
G1 X135.959 Y172.629 E7.96374
G1 X134.079 Y173.377 E8.03103
G1 X133.829 Y173.472 E8.03993
G1 X131.931 Y174.153 E8.107
G1 X131.684 Y174.237 E8.11567
G1 X129.771 Y174.852 E8.18251
G1 X129.516 Y174.929 E8.19137
G1 X127.577 Y175.48 E8.25841
G1 X127.321 Y175.548 E8.26722
G1 X125.364 Y176.033 E8.33428
G1 X125.12 Y176.089 E8.34261
G1 X123.143 Y176.512 E8.40985
G1 X122.877 Y176.565 E8.41887
G1 X120.892 Y176.918 E8.48593
G1 X120.636 Y176.959 E8.49455
G1 X118.647 Y177.245 E8.56139
G1 X118.389 Y177.277 E8.57003
G1 X116.379 Y177.498 E8.63729
G1 X116.113 Y177.523 E8.64618
G1 X114.11 Y177.674 E8.71298
G1 X113.852 Y177.689 E8.72158
G1 X111.831 Y177.774 E8.78886
G1 X111.569 Y177.781 E8.79758
G1 X109.558 Y177.798 E8.86446
G1 X109.294 Y177.795 E8.87325
G1 X107.281 Y177.744 E8.94022
G1 X107.02 Y177.733 E8.94891
G1 X105.001 Y177.614 E9.01618
G1 X104.745 Y177.595 E9.02471
G1 X102.736 Y177.41 E9.09182
G1 X102.466 Y177.381 E9.10085
G1 X100.471 Y177.127 E9.16774
G1 X100.221 Y177.091 E9.17614
G1 X98.232 Y176.772 E9.24314
G1 X97.969 Y176.725 E9.25203
G1 X95.991 Y176.338 E9.31906
G1 X95.734 Y176.283 E9.3278
G1 X93.764 Y175.828 E9.39505
G1 X93.51 Y175.765 E9.40375
G1 X91.563 Y175.246 E9.47077
G1 X91.309 Y175.174 E9.47955
G1 X89.379 Y174.589 E9.54663
G1 X89.132 Y174.509 E9.55527
G1 X87.231 Y173.863 E9.62204
G1 X86.981 Y173.773 E9.63088
G1 X85.094 Y173.059 E9.69799
G1 X84.856 Y172.965 E9.7065
G1 X82.987 Y172.187 E9.77383
G1 X82.747 Y172.082 E9.78254
G1 X80.915 Y171.246 E9.84952
G1 X80.674 Y171.131 E9.8584
G1 X78.87 Y170.232 E9.92544
G1 X78.637 Y170.111 E9.93417
G1 X76.87 Y169.155 E10.00099
G1 X76.643 Y169.028 E10.00965
G1 X74.896 Y168.006 E10.07696
G1 X74.675 Y167.871 E10.08558
G1 X72.97 Y166.796 E10.15262
G1 X72.748 Y166.651 E10.16143
G1 X71.087 Y165.523 E10.22821
G1 X70.874 Y165.373 E10.23688
G1 X69.239 Y164.181 E10.30418
G1 X69.026 Y164.02 E10.31306
G1 X67.438 Y162.777 E10.38013
G1 X67.24 Y162.616 E10.38862
G1 X65.7 Y161.327 E10.45541
G1 X65.502 Y161.156 E10.46412
G1 X63.995 Y159.806 E10.53141
G1 X63.799 Y159.625 E10.54028
G1 X62.349 Y158.234 E10.60711
G1 X62.165 Y158.051 E10.61574
G1 X60.753 Y156.603 E10.68301
G1 X60.572 Y156.411 E10.69179
G1 X59.214 Y154.921 E10.75884
G1 X59.042 Y154.726 E10.76749
G1 X57.735 Y153.192 E10.83452
G1 X57.567 Y152.988 E10.84331
G1 X56.312 Y151.41 E10.91037
G1 X56.152 Y151.201 E10.91912
G1 X54.955 Y149.587 E10.98596
G1 X54.805 Y149.377 E10.99454
G1 X53.655 Y147.714 E11.06179
G1 X53.51 Y147.498 E11.07044
G1 X52.419 Y145.802 E11.13751
G1 X52.277 Y145.572 E11.1465
G1 X51.246 Y143.84 E11.21354
G1 X51.12 Y143.62 E11.22198
G1 X50.145 Y141.854 E11.28907
G1 X50.017 Y141.614 E11.29812
G1 X49.105 Y139.817 E11.36514
G1 X48.993 Y139.587 E11.37365
G1 X48.14 Y137.76 E11.44072
G1 X48.034 Y137.522 E11.44938
G1 X47.243 Y135.669 E11.51639
G1 X47.142 Y135.421 E11.5253
G1 X46.417 Y133.547 E11.59213
G1 X46.327 Y133.301 E11.60084
G1 X45.661 Y131.391 E11.66812
G1 X45.58 Y131.148 E11.67664
G1 X44.979 Y129.223 E11.74371
G1 X44.905 Y128.969 E11.75251
G1 X44.37 Y127.026 E11.81954
G1 X44.305 Y126.774 E11.8282
G1 X43.837 Y124.822 E11.89496
G1 X43.781 Y124.568 E11.90361
G1 X43.375 Y122.585 E11.97094
G1 X43.326 Y122.323 E11.9798
G1 X42.989 Y120.334 E12.0469
G1 X42.949 Y120.077 E12.05555
G1 X42.679 Y118.081 E12.12254
G1 X42.648 Y117.815 E12.13145
G1 X42.447 Y115.815 E12.1983
G1 X42.426 Y115.56 E12.20681
G1 X42.29 Y113.543 E12.27405
G1 X42.276 Y113.283 E12.28271
G1 X42.208 Y111.279 E12.3494
G1 X42.204 Y111.014 E12.35822
G1 X42.204 Y108.994 E12.4254
G1 X42.208 Y108.731 E12.43415
G1 X42.276 Y106.715 E12.50124
G1 X42.29 Y106.453 E12.50997
G1 X42.426 Y104.436 E12.57721
G1 X42.448 Y104.176 E12.58589
G1 X42.65 Y102.178 E12.65268
G1 X42.68 Y101.919 E12.66135
G1 X42.95 Y99.92 E12.72844
G1 X42.99 Y99.659 E12.73722
G1 X43.327 Y97.673 E12.80422
G1 X43.375 Y97.417 E12.81288
G1 X43.78 Y95.434 E12.8802
G1 X43.837 Y95.175 E12.88902
G1 X44.306 Y93.221 E12.95586
G1 X44.371 Y92.97 E12.96448
G1 X44.906 Y91.027 E13.03151
G1 X44.981 Y90.771 E13.04038
G1 X45.582 Y88.848 E13.10739
G1 X45.66 Y88.613 E13.11563
G1 X46.325 Y86.701 E13.18296
G1 X46.419 Y86.444 E13.19206
G1 X47.145 Y84.571 E13.25887
G1 X47.244 Y84.329 E13.26757
G1 X48.035 Y82.475 E13.33461
G1 X48.143 Y82.233 E13.34343
G1 X48.996 Y80.408 E13.41043
G1 X49.109 Y80.176 E13.41901
G1 X50.023 Y78.378 E13.4861
G1 X50.143 Y78.152 E13.49461
G1 X51.115 Y76.386 E13.56165
G1 X51.251 Y76.149 E13.57074
G1 X52.285 Y74.417 E13.63783
G1 X52.421 Y74.196 E13.64646
G1 X53.511 Y72.501 E13.71349
G1 X53.655 Y72.285 E13.72212
G1 X54.805 Y70.621 E13.7894
G1 X54.957 Y70.41 E13.79805
G1 X56.154 Y68.796 E13.86488
G1 X56.316 Y68.585 E13.87373
G1 X57.571 Y67.008 E13.94077
G1 X57.735 Y66.808 E13.94937
G1 X59.042 Y65.273 E14.01642
G1 X59.22 Y65.072 E14.02535
G1 X60.579 Y63.583 E14.0924
G1 X60.754 Y63.397 E14.1009
G1 X62.165 Y61.949 E14.16814
G0 F6000 X62.451 Y62.229
G1 F1200 X62.63 Y62.051 E14.17654
G1 X64.081 Y60.66 E14.24339
G1 X64.259 Y60.495 E14.25146
G1 X65.764 Y59.144 E14.31873
G1 X65.961 Y58.973 E14.32741
G1 X67.503 Y57.684 E14.39425
G1 X67.69 Y57.533 E14.40225
G1 X69.278 Y56.291 E14.4693
G1 X69.472 Y56.145 E14.47738
G1 X71.105 Y54.952 E14.54464
G1 X71.319 Y54.801 E14.55335
G1 X72.982 Y53.674 E14.62017
G1 X73.184 Y53.542 E14.62819
G1 X74.889 Y52.466 E14.69525
G1 X75.108 Y52.333 E14.70377
G1 X76.854 Y51.314 E14.77101
G1 X77.06 Y51.198 E14.77887
G1 X78.827 Y50.241 E14.84571
G1 X79.05 Y50.125 E14.85407
G1 X80.856 Y49.225 E14.92118
G1 X81.086 Y49.115 E14.92966
G1 X82.919 Y48.279 E14.99667
G1 X83.149 Y48.179 E15.00501
G1 X85.015 Y47.403 E15.07223
G1 X85.234 Y47.316 E15.08007
G1 X87.121 Y46.601 E15.14718
G1 X87.364 Y46.514 E15.15577
G1 X89.267 Y45.868 E15.22261
G1 X89.497 Y45.794 E15.23065
G1 X91.425 Y45.209 E15.29766
G1 X91.67 Y45.139 E15.30613
G1 X93.619 Y44.62 E15.37322
G1 X93.861 Y44.56 E15.38151
G1 X95.831 Y44.106 E15.44875
G1 X96.072 Y44.055 E15.45694
G1 X98.05 Y43.668 E15.52398
G1 X98.299 Y43.623 E15.53239
G1 X100.287 Y43.304 E15.59936
G1 X100.525 Y43.27 E15.60736
G1 X102.521 Y43.016 E15.67428
G1 X102.772 Y42.989 E15.68268
G1 X104.78 Y42.803 E15.74975
G1 X105.031 Y42.784 E15.75812
G1 X107.051 Y42.666 E15.82542
G1 X107.295 Y42.655 E15.83354
G1 X109.307 Y42.604 E15.90048
G1 X109.558 Y42.602 E15.90883
G1 X111.57 Y42.619 E15.97575
G1 X111.818 Y42.626 E15.98401
G1 X113.837 Y42.711 E16.05122
G1 X114.086 Y42.725 E16.05951
G1 X116.09 Y42.877 E16.12636
G1 X116.339 Y42.9 E16.13467
G1 X118.349 Y43.121 E16.20193
G1 X118.593 Y43.152 E16.21011
G1 X120.582 Y43.438 E16.27695
G1 X120.825 Y43.477 E16.28513
G1 X122.81 Y43.83 E16.35219
G1 X123.058 Y43.879 E16.3606
G1 X125.036 Y44.301 E16.42787
G1 X125.275 Y44.356 E16.43602
G1 X127.233 Y44.842 E16.50312
G1 X127.474 Y44.906 E16.51142
G1 X129.412 Y45.457 E16.57843
G1 X129.655 Y45.531 E16.58688
G1 X131.566 Y46.146 E16.65365
G1 X131.8 Y46.226 E16.66187
G1 X133.699 Y46.908 E16.72898
G1 X133.929 Y46.994 E16.73715
G1 X135.808 Y47.74 E16.80439
G1 X136.036 Y47.835 E16.81261
G1 X137.879 Y48.639 E16.87948
G1 X138.104 Y48.742 E16.88772
G1 X139.929 Y49.612 E16.95496
G1 X140.156 Y49.725 E16.96339
G1 X141.939 Y50.651 E17.03022
G1 X142.158 Y50.769 E17.03849
G1 X143.915 Y51.758 E17.10555
G1 X144.128 Y51.883 E17.11376
G1 X145.856 Y52.933 E17.18102
G1 X146.062 Y53.063 E17.18912
G1 X147.743 Y54.162 E17.25592
G1 X147.956 Y54.306 E17.26447
G1 X149.604 Y55.467 E17.33152
G1 X149.801 Y55.612 E17.33965
G1 X151.414 Y56.83 E17.40688
G1 X151.609 Y56.981 E17.41508
G1 X153.173 Y58.246 E17.48199
G1 X153.366 Y58.408 E17.49037
G1 X154.889 Y59.728 E17.5574
G1 X155.073 Y59.893 E17.56562
G1 X156.552 Y61.264 E17.6327
G1 X156.737 Y61.442 E17.64124
G1 X158.171 Y62.867 E17.70847
G1 X158.333 Y63.033 E17.71619
G1 X159.713 Y64.493 E17.78301
G1 X159.891 Y64.688 E17.79179
G1 X161.224 Y66.203 E17.85891
G1 X161.378 Y66.384 E17.86681
G1 X162.66 Y67.939 E17.93384
G1 X162.817 Y68.137 E17.94225
G1 X164.049 Y69.74 E18.00949
G1 X164.2 Y69.942 E18.01788
G1 X165.373 Y71.581 E18.08491
G1 X165.512 Y71.782 E18.09304
G1 X166.627 Y73.454 E18.15988
G1 X166.761 Y73.664 E18.16817
G1 X167.823 Y75.379 E18.23526
G1 X167.953 Y75.596 E18.24367
G1 X168.954 Y77.343 E18.31064
G1 X169.071 Y77.555 E18.3187
G1 X170.016 Y79.337 E18.38578
G1 X170.13 Y79.562 E18.39417
G1 X171.013 Y81.374 E18.46122
G1 X171.116 Y81.595 E18.46933
G1 X171.942 Y83.442 E18.53662
G1 X172.042 Y83.677 E18.54511
G1 X172.798 Y85.537 E18.61189
G1 X172.887 Y85.766 E18.62006
G1 X173.584 Y87.659 E18.68716
G1 X173.666 Y87.895 E18.69547
G1 X174.298 Y89.808 E18.76248
G1 X174.372 Y90.045 E18.77074
G1 X174.94 Y91.98 E18.83781
G1 X175.006 Y92.216 E18.84596
G1 X175.511 Y94.174 E18.91321
G1 X175.57 Y94.421 E18.92166
G1 X176.005 Y96.384 E18.98853
G1 X176.054 Y96.625 E18.99671
G1 X176.424 Y98.604 E19.06368
G1 X176.465 Y98.849 E19.07194
G1 X176.769 Y100.843 E19.13903
G1 X176.803 Y101.091 E19.14735
G1 X177.04 Y103.1 E19.21463
G1 X177.065 Y103.345 E19.22282
G1 X177.234 Y105.347 E19.28965
G1 X177.251 Y105.594 E19.29788
G1 X177.353 Y107.606 E19.36489
G1 X177.361 Y107.856 E19.37321
G1 X177.395 Y109.874 E19.44034
G1 X177.395 Y110.124 E19.44865
G1 X177.361 Y112.138 E19.51565
G1 X177.352 Y112.39 E19.52403
G1 X177.249 Y114.411 E19.59134
G1 X177.233 Y114.652 E19.59937
G1 X177.065 Y116.655 E19.66623
G1 X177.04 Y116.904 E19.67455
G1 X176.804 Y118.905 E19.74157
