;FLAVOR:Marlin
;TIME:307
;Filament used: 0.0974828m
;Layer height: 0.16
;MINX:99.205
;MINY:99.204
;MINZ:0.2
;MAXX:120.795
;MAXY:129.997
;MAXZ:11.8
;Generated with Creality Slicer 4.8.2-172
M140 S60
M105
M190 S60
M104 S200
M105
M109 S200
M82 ;absolute extrusion mode

G28 ;Home

G92 E0 ;Reset Extruder
G1 Z2.0 F3000 ;Move Z Axis up
G1 X10.1 Y20 Z0.28 F5000.0 ;Move to start position
G1 X10.1 Y200.0 Z0.28 F1500.0 E15 ;Draw the first line
G1 X10.4 Y200.0 Z0.28 F5000.0 ;Move to side a little
G1 X10.4 Y20 Z0.28 F1500.0 E30 ;Draw the second line
G92 E0 ;Reset Extruder
G1 Z2.0 F3000 ;Move Z Axis up

G92 E0
G92 E0
G1 F3600 E-5
;LAYER_COUNT:61
;LAYER:0
M107
G0 F6000 X102.381 Y102.35 Z0.2
;TYPE:SKIRT
G1 F3600 E0
G1 F1200 X103.038 Y101.747 E0.02966
G1 X103.278 Y101.551 E0.03997
G1 X103.885 Y101.102 E0.06508
G1 X104.137 Y100.934 E0.07515
G1 X104.818 Y100.529 E0.1015
G1 X105.079 Y100.391 E0.11132
G1 X105.754 Y100.074 E0.13613
G1 X106.038 Y99.957 E0.14634
G1 X106.798 Y99.689 E0.17315
G1 X107.089 Y99.603 E0.18324
G1 X107.866 Y99.416 E0.20982
G1 X108.176 Y99.358 E0.22031
G1 X108.998 Y99.249 E0.24789
G1 X109.29 Y99.226 E0.25763
G1 X110.057 Y99.204 E0.28315
G1 X110.358 Y99.21 E0.29317
G1 X111.143 Y99.265 E0.31934
G1 X111.456 Y99.303 E0.32983
G1 X112.245 Y99.44 E0.35646
G1 X112.531 Y99.505 E0.36622
G1 X113.238 Y99.701 E0.39062
G1 X113.527 Y99.796 E0.40074
G1 X114.296 Y100.095 E0.42818
G1 X114.58 Y100.223 E0.43854
G1 X115.276 Y100.579 E0.46454
G1 X115.534 Y100.728 E0.47445
G1 X116.198 Y101.158 E0.50076
G1 X116.446 Y101.337 E0.51093
G1 X117.079 Y101.846 E0.53795
G1 X117.305 Y102.048 E0.54803
G1 X117.877 Y102.616 E0.57484
G1 X118.078 Y102.837 E0.58478
G1 X118.545 Y103.401 E0.60913
G1 X118.729 Y103.646 E0.61932
G1 X119.2 Y104.35 E0.6475
G1 X119.359 Y104.618 E0.65786
G1 X119.707 Y105.273 E0.68253
G1 X119.83 Y105.534 E0.69213
G1 X120.139 Y106.292 E0.71935
G1 X120.246 Y106.599 E0.73017
G1 X120.464 Y107.338 E0.75579
G1 X120.532 Y107.62 E0.76544
G1 X120.68 Y108.414 E0.7923
G1 X120.72 Y108.713 E0.80234
G1 X120.784 Y109.466 E0.82747
G1 X120.795 Y109.771 E0.83762
G1 X120.779 Y110.625 E0.86603
G1 X120.756 Y110.937 E0.87644
G1 X120.665 Y111.68 E0.90133
G1 X120.615 Y111.972 E0.91119
G1 X120.439 Y112.755 E0.93788
G1 X120.356 Y113.052 E0.94814
G1 X120.1 Y113.814 E0.97487
G1 X119.99 Y114.093 E0.98485
G1 X119.679 Y114.782 E1.00999
G1 X119.542 Y115.05 E1.02
G1 X119.133 Y115.757 E1.04717
G1 X119.067 Y115.859 E1.05121
G1 X119.243 Y116.289 E1.06666
G1 X119.265 Y116.362 E1.0692
G1 X119.421 Y116.711 E1.08191
G1 X119.669 Y117.46 E1.10815
G1 X119.879 Y118.482 E1.14286
G1 X119.92 Y118.782 E1.15293
G1 X119.99 Y119.65 E1.18189
G1 X119.997 Y119.94 E1.19154
G1 X119.976 Y120.729 E1.21779
G1 X119.934 Y121.131 E1.23123
G1 X119.906 Y121.347 E1.23848
G1 X119.805 Y121.944 E1.25862
G1 X119.744 Y122.235 E1.26851
G1 X119.426 Y123.339 E1.30672
G1 X119.331 Y123.596 E1.31583
G1 X118.947 Y124.469 E1.34755
G1 X118.818 Y124.719 E1.35691
G1 X118.261 Y125.636 E1.39259
G1 X118.101 Y125.863 E1.40183
G1 X117.542 Y126.567 E1.43173
G1 X117.357 Y126.774 E1.44096
G1 X116.591 Y127.521 E1.47655
G1 X116.385 Y127.696 E1.48554
G1 X115.707 Y128.211 E1.51386
G1 X115.475 Y128.368 E1.52317
G1 X114.569 Y128.896 E1.55805
G1 X114.319 Y129.02 E1.56733
G1 X113.413 Y129.4 E1.60001
G1 X113.154 Y129.49 E1.60913
G1 X112.124 Y129.771 E1.64464
G1 X111.859 Y129.824 E1.65363
G1 X110.964 Y129.949 E1.68369
G1 X110.658 Y129.974 E1.6939
G1 X109.806 Y129.997 E1.72225
G1 X109.555 Y129.99 E1.7306
G1 X108.44 Y129.878 E1.76787
G1 X108.163 Y129.83 E1.77722
G1 X107.108 Y129.571 E1.81335
G1 X106.828 Y129.481 E1.82313
G1 X106.135 Y129.221 E1.84775
G1 X105.9 Y129.12 E1.85626
G1 X104.959 Y128.638 E1.89142
G1 X104.718 Y128.493 E1.90078
G1 X103.831 Y127.872 E1.93679
G1 X103.621 Y127.702 E1.94578
G1 X102.986 Y127.126 E1.97429
G1 X102.79 Y126.928 E1.98356
G1 X102.14 Y126.183 E2.01644
G1 X101.97 Y125.961 E2.02574
G1 X101.389 Y125.086 E2.06068
G1 X101.252 Y124.846 E2.06987
G1 X100.855 Y124.048 E2.09951
G1 X100.748 Y123.798 E2.10856
G1 X100.394 Y122.784 E2.14428
G1 X100.32 Y122.513 E2.15362
G1 X100.134 Y121.633 E2.18354
G1 X100.093 Y121.364 E2.19259
G1 X100.005 Y120.328 E2.22717
G1 X100 Y120.047 E2.23652
G1 X100.039 Y119.124 E2.26724
G1 X100.067 Y118.847 E2.2765
G1 X100.186 Y118.066 E2.30278
G1 X100.25 Y117.817 E2.31133
G1 X100.273 Y117.682 E2.31589
G1 X100.483 Y116.92 E2.34217
G1 X100.624 Y116.53 E2.35597
G1 X100.736 Y116.244 E2.36618
G1 X100.921 Y115.83 E2.38127
G1 X100.793 Y115.639 E2.38891
G1 X100.634 Y115.37 E2.39931
G1 X100.29 Y114.718 E2.42382
G1 X100.165 Y114.452 E2.4336
G1 X99.859 Y113.704 E2.46048
G1 X99.754 Y113.403 E2.47108
G1 X99.536 Y112.662 E2.49677
G1 X99.468 Y112.38 E2.50642
G1 X99.319 Y111.58 E2.53349
G1 X99.279 Y111.279 E2.54359
G1 X99.216 Y110.534 E2.56845
G1 X99.205 Y110.231 E2.57854
G1 X99.221 Y109.382 E2.60678
G1 X99.244 Y109.066 E2.61732
G1 X99.338 Y108.298 E2.64305
G1 X99.388 Y108.01 E2.65278
G1 X99.561 Y107.245 E2.67886
G1 X99.644 Y106.948 E2.68912
G1 X99.9 Y106.186 E2.71586
G1 X100.01 Y105.907 E2.72583
G1 X100.321 Y105.218 E2.75097
G1 X100.458 Y104.95 E2.76098
G1 X100.867 Y104.243 E2.78815
G1 X101.037 Y103.982 E2.79851
G1 X101.487 Y103.36 E2.82404
G1 X101.673 Y103.128 E2.83393
G1 X102.168 Y102.569 E2.85877
G1 X102.381 Y102.35 E2.86893
G0 F6000 X102.667 Y102.629
G1 F1200 X103.291 Y102.056 E2.89711
G1 X103.531 Y101.86 E2.90741
G1 X104.107 Y101.435 E2.93122
G1 X104.359 Y101.267 E2.94129
G1 X105.005 Y100.882 E2.96631
G1 X105.266 Y100.744 E2.97613
G1 X105.906 Y100.444 E2.99964
G1 X106.19 Y100.327 E3.00985
G1 X106.912 Y100.072 E3.03532
G1 X107.203 Y99.986 E3.04541
G1 X107.939 Y99.809 E3.07059
G1 X108.249 Y99.751 E3.08108
G1 X109.029 Y99.648 E3.10725
G1 X109.321 Y99.625 E3.11699
G1 X110.049 Y99.603 E3.14121
G1 X110.35 Y99.609 E3.15123
G1 X111.095 Y99.662 E3.17607
G1 X111.408 Y99.7 E3.18655
G1 X112.156 Y99.83 E3.21181
G1 X112.442 Y99.895 E3.22156
G1 X113.113 Y100.081 E3.24472
G1 X113.402 Y100.176 E3.25484
G1 X114.132 Y100.46 E3.28089
G1 X114.416 Y100.588 E3.29125
G1 X115.076 Y100.926 E3.31591
G1 X115.334 Y101.075 E3.32582
G1 X115.964 Y101.483 E3.35079
G1 X116.212 Y101.662 E3.36096
G1 X116.812 Y102.145 E3.38658
G1 X117.038 Y102.347 E3.39666
G1 X117.581 Y102.885 E3.42208
G1 X117.782 Y103.106 E3.43202
G1 X118.225 Y103.641 E3.45512
G1 X118.409 Y103.886 E3.46531
G1 X118.856 Y104.554 E3.49205
G1 X119.015 Y104.822 E3.50241
G1 X119.345 Y105.443 E3.5258
G1 X119.468 Y105.704 E3.5354
G1 X119.762 Y106.424 E3.56127
G1 X119.869 Y106.731 E3.57208
G1 X120.075 Y107.431 E3.59635
G1 X120.143 Y107.713 E3.606
G1 X120.284 Y108.467 E3.63151
G1 X120.324 Y108.766 E3.64154
G1 X120.384 Y109.48 E3.66537
G1 X120.395 Y109.785 E3.67552
G1 X120.38 Y110.596 E3.7025
G1 X120.357 Y110.908 E3.71291
G1 X120.271 Y111.613 E3.73653
G1 X120.221 Y111.905 E3.74638
G1 X120.054 Y112.648 E3.77171
G1 X119.971 Y112.945 E3.78197
G1 X119.728 Y113.667 E3.80731
G1 X119.618 Y113.946 E3.81728
G1 X119.323 Y114.6 E3.84114
G1 X119.186 Y114.868 E3.85116
G1 X118.798 Y115.539 E3.87694
G1 X118.619 Y115.813 E3.88782
G1 X118.765 Y116.178 E3.9009
G1 X118.892 Y116.497 E3.91232
G1 X118.902 Y116.533 E3.91356
G1 X119.069 Y116.912 E3.92733
G1 X119.305 Y117.644 E3.95291
G1 X119.483 Y118.536 E3.98317
G1 X119.524 Y118.836 E3.99324
G1 X119.59 Y119.659 E4.0207
G1 X119.597 Y119.949 E4.03035
G1 X119.538 Y121.079 E4.06798
G1 X119.51 Y121.295 E4.07523
G1 X119.414 Y121.862 E4.09435
G1 X119.353 Y122.153 E4.10424
G1 X119.051 Y123.201 E4.14052
G1 X118.956 Y123.458 E4.14963
G1 X118.591 Y124.285 E4.1797
G1 X118.462 Y124.535 E4.18905
G1 X117.935 Y125.405 E4.22288
G1 X117.775 Y125.632 E4.23212
G1 X117.244 Y126.3 E4.2605
G1 X117.059 Y126.507 E4.26974
G1 X116.332 Y127.216 E4.30351
G1 X116.126 Y127.391 E4.3125
G1 X115.482 Y127.88 E4.3394
G1 X115.25 Y128.037 E4.34871
G1 X114.391 Y128.537 E4.38177
G1 X114.141 Y128.661 E4.39105
G1 X113.282 Y129.022 E4.42205
G1 X113.023 Y129.112 E4.43116
G1 X112.045 Y129.378 E4.46487
G1 X111.78 Y129.431 E4.47386
G1 X110.932 Y129.55 E4.50234
G1 X110.626 Y129.575 E4.51256
G1 X109.817 Y129.597 E4.53947
G1 X109.566 Y129.59 E4.54782
G1 X108.509 Y129.484 E4.58316
G1 X108.232 Y129.436 E4.59251
G1 X107.231 Y129.19 E4.62679
G1 X106.951 Y129.1 E4.63657
G1 X106.293 Y128.854 E4.65994
G1 X106.058 Y128.753 E4.66845
G1 X105.165 Y128.295 E4.70183
G1 X104.924 Y128.15 E4.71118
G1 X104.083 Y127.561 E4.74533
G1 X103.873 Y127.391 E4.75432
G1 X103.27 Y126.845 E4.78137
G1 X103.074 Y126.647 E4.79064
G1 X102.458 Y125.94 E4.82183
G1 X102.288 Y125.718 E4.83113
G1 X101.736 Y124.888 E4.86428
G1 X101.599 Y124.648 E4.87347
G1 X101.223 Y123.891 E4.90158
G1 X101.116 Y123.641 E4.91063
G1 X100.78 Y122.678 E4.94455
G1 X100.706 Y122.407 E4.9539
G1 X100.529 Y121.573 E4.98225
G1 X100.488 Y121.304 E4.9913
G1 X100.405 Y120.321 E5.02411
G1 X100.4 Y120.04 E5.03346
G1 X100.437 Y119.164 E5.06262
G1 X100.465 Y118.887 E5.07188
G1 X100.582 Y118.127 E5.09746
G1 X100.651 Y117.865 E5.10647
G1 X100.686 Y117.671 E5.11303
G1 X100.997 Y116.676 E5.1477
G1 X101.109 Y116.39 E5.15792
G1 X101.376 Y115.792 E5.1797
G1 X101.138 Y115.435 E5.19397
G1 X100.979 Y115.166 E5.20436
G1 X100.652 Y114.548 E5.22762
G1 X100.527 Y114.282 E5.23739
G1 X100.237 Y113.572 E5.2629
G1 X100.132 Y113.271 E5.2735
G1 X99.925 Y112.569 E5.29785
G1 X99.857 Y112.287 E5.30749
G1 X99.715 Y111.527 E5.33321
G1 X99.675 Y111.226 E5.34331
G1 X99.616 Y110.519 E5.3669
G1 X99.605 Y110.216 E5.37699
G1 X99.62 Y109.411 E5.40377
G1 X99.643 Y109.095 E5.41431
G1 X99.732 Y108.366 E5.43873
G1 X99.782 Y108.078 E5.44846
G1 X99.946 Y107.352 E5.47321
G1 X100.029 Y107.055 E5.48347
G1 X100.272 Y106.333 E5.5088
G1 X100.382 Y106.054 E5.51878
G1 X100.677 Y105.4 E5.54264
G1 X100.814 Y105.132 E5.55265
G1 X101.202 Y104.461 E5.57843
G1 X101.372 Y104.2 E5.58879
G1 X101.799 Y103.61 E5.61302
G1 X101.985 Y103.378 E5.62291
G1 X102.454 Y102.848 E5.64645
G1 X102.667 Y102.629 E5.65661
G0 F6000 X102.954 Y102.907
G1 F1200 X103.544 Y102.366 E5.68323
G1 X103.784 Y102.17 E5.69354
G1 X104.329 Y101.768 E5.71606
G1 X104.581 Y101.6 E5.72613
G1 X105.192 Y101.236 E5.74979
G1 X105.453 Y101.098 E5.75961
G1 X106.059 Y100.814 E5.78187
G1 X106.343 Y100.697 E5.79208
G1 X107.025 Y100.456 E5.81614
G1 X107.316 Y100.37 E5.82623
G1 X108.013 Y100.202 E5.85008
G1 X108.323 Y100.144 E5.86057
G1 X109.06 Y100.047 E5.88529
G1 X109.352 Y100.024 E5.89504
G1 X110.042 Y100.003 E5.918
G1 X110.343 Y100.009 E5.92801
G1 X111.047 Y100.059 E5.95148
G1 X111.36 Y100.097 E5.96197
G1 X112.067 Y100.22 E5.98584
G1 X112.353 Y100.285 E5.99559
G1 X112.988 Y100.461 E6.01751
G1 X113.277 Y100.556 E6.02763
G1 X113.967 Y100.824 E6.05225
G1 X114.251 Y100.952 E6.06261
G1 X114.876 Y101.272 E6.08596
G1 X115.134 Y101.421 E6.09587
G1 X115.73 Y101.807 E6.11949
G1 X115.978 Y101.986 E6.12966
G1 X116.546 Y102.443 E6.15391
G1 X116.772 Y102.645 E6.16399
G1 X117.286 Y103.154 E6.18805
G1 X117.487 Y103.375 E6.19799
G1 X117.905 Y103.881 E6.21982
G1 X118.089 Y104.126 E6.23001
G1 X118.512 Y104.758 E6.2553
G1 X118.671 Y105.026 E6.26567
G1 X118.983 Y105.614 E6.28781
G1 X119.106 Y105.875 E6.2974
G1 X119.384 Y106.555 E6.32184
G1 X119.491 Y106.862 E6.33265
G1 X119.686 Y107.525 E6.35564
G1 X119.754 Y107.807 E6.36528
G1 X119.887 Y108.52 E6.38941
G1 X119.927 Y108.819 E6.39944
G1 X119.984 Y109.495 E6.422
G1 X119.995 Y109.8 E6.43215
G1 X119.981 Y110.567 E6.45767
G1 X119.958 Y110.879 E6.46807
G1 X119.877 Y111.545 E6.49039
G1 X119.827 Y111.837 E6.50024
G1 X119.669 Y112.54 E6.52421
G1 X119.586 Y112.837 E6.53446
G1 X119.356 Y113.521 E6.55847
G1 X119.246 Y113.8 E6.56844
G1 X118.967 Y114.418 E6.59099
G1 X118.83 Y114.686 E6.601
G1 X118.463 Y115.32 E6.62537
G1 X118.293 Y115.581 E6.63573
G1 X118.151 Y115.777 E6.64378
G1 X118.269 Y116.006 E6.65235
G1 X118.399 Y116.342 E6.66433
G1 X118.433 Y116.411 E6.66689
G1 X118.52 Y116.654 E6.67547
G1 X118.717 Y117.112 E6.69206
G1 X118.938 Y117.826 E6.71692
G1 X119.087 Y118.59 E6.7428
G1 X119.128 Y118.89 E6.75288
G1 X119.19 Y119.669 E6.77887
G1 X119.197 Y119.959 E6.78852
G1 X119.141 Y121.028 E6.82412
G1 X119.113 Y121.244 E6.83136
G1 X119.022 Y121.78 E6.84945
G1 X118.961 Y122.071 E6.85933
G1 X118.676 Y123.062 E6.89363
G1 X118.581 Y123.319 E6.90274
G1 X118.236 Y124.102 E6.9312
G1 X118.107 Y124.352 E6.94056
G1 X117.608 Y125.175 E6.97257
G1 X117.448 Y125.402 E6.98181
G1 X116.945 Y126.034 E7.00867
G1 X116.76 Y126.241 E7.01791
G1 X116.073 Y126.911 E7.04982
G1 X115.867 Y127.086 E7.05882
G1 X115.258 Y127.548 E7.08424
G1 X115.026 Y127.705 E7.09356
G1 X114.213 Y128.179 E7.12486
G1 X113.963 Y128.303 E7.13414
G1 X113.151 Y128.644 E7.16343
G1 X112.892 Y128.734 E7.17255
G1 X111.967 Y128.986 E7.20444
G1 X111.702 Y129.039 E7.21343
G1 X110.899 Y129.152 E7.2404
G1 X110.593 Y129.177 E7.25061
G1 X109.828 Y129.197 E7.27606
G1 X109.577 Y129.19 E7.28441
G1 X108.577 Y129.09 E7.31784
G1 X108.3 Y129.042 E7.32719
G1 X107.353 Y128.809 E7.35963
G1 X107.073 Y128.719 E7.36941
G1 X106.451 Y128.486 E7.3915
G1 X106.216 Y128.385 E7.40001
G1 X105.371 Y127.952 E7.43159
G1 X105.13 Y127.807 E7.44094
G1 X104.335 Y127.25 E7.47323
G1 X104.125 Y127.08 E7.48221
G1 X103.554 Y126.564 E7.50781
G1 X103.358 Y126.366 E7.51708
G1 X102.775 Y125.697 E7.54659
G1 X102.605 Y125.475 E7.55589
G1 X102.084 Y124.689 E7.58726
G1 X101.947 Y124.449 E7.59645
G1 X101.591 Y123.733 E7.62304
G1 X101.484 Y123.483 E7.63209
G1 X101.166 Y122.573 E7.66415
G1 X101.092 Y122.302 E7.67349
G1 X100.925 Y121.513 E7.70032
G1 X100.884 Y121.244 E7.70937
G1 X100.805 Y120.314 E7.74041
G1 X100.8 Y120.033 E7.74976
G1 X100.834 Y119.204 E7.77735
G1 X100.862 Y118.927 E7.78661
G1 X100.977 Y118.188 E7.81149
G1 X101.048 Y117.925 E7.82055
G1 X101.099 Y117.663 E7.82943
G1 X101.369 Y116.821 E7.85884
G1 X101.481 Y116.535 E7.86905
G1 X101.749 Y115.935 E7.89091
G1 X101.836 Y115.762 E7.89735
G1 X101.482 Y115.232 E7.91855
G1 X101.323 Y114.963 E7.92894
G1 X101.014 Y114.378 E7.95095
G1 X100.889 Y114.112 E7.96072
G1 X100.615 Y113.441 E7.98483
G1 X100.51 Y113.14 E7.99543
G1 X100.314 Y112.475 E8.01849
G1 X100.246 Y112.193 E8.02814
G1 X100.112 Y111.474 E8.05246
G1 X100.072 Y111.173 E8.06256
G1 X100.016 Y110.505 E8.08486
G1 X100.005 Y110.202 E8.09494
G1 X100.018 Y109.44 E8.12029
G1 X100.041 Y109.124 E8.13083
G1 X100.126 Y108.435 E8.15392
G1 X100.176 Y108.147 E8.16364
G1 X100.331 Y107.46 E8.18706
G1 X100.414 Y107.163 E8.19732
G1 X100.644 Y106.479 E8.22132
G1 X100.754 Y106.2 E8.2313
G1 X101.033 Y105.582 E8.25385
G1 X101.17 Y105.314 E8.26386
G1 X101.537 Y104.68 E8.28823
G1 X101.707 Y104.419 E8.29859
G1 X102.112 Y103.86 E8.32155
G1 X102.298 Y103.628 E8.33144
G1 X102.741 Y103.126 E8.3537
G1 X102.954 Y102.907 E8.36386
G0 F6000 X103.241 Y103.186
G1 F1200 X103.797 Y102.676 E8.38896
G1 X104.037 Y102.48 E8.39926
G1 X104.551 Y102.1 E8.42052
G1 X104.803 Y101.932 E8.4306
G1 X105.379 Y101.589 E8.4529
G1 X105.64 Y101.451 E8.46272
G1 X106.211 Y101.184 E8.48368
G1 X106.495 Y101.067 E8.4939
G1 X107.138 Y100.84 E8.51658
G1 X107.429 Y100.754 E8.52667
G1 X108.086 Y100.596 E8.54914
G1 X108.396 Y100.538 E8.55963
G1 X109.092 Y100.445 E8.58299
G1 X109.384 Y100.422 E8.59273
G1 X110.034 Y100.403 E8.61436
G1 X110.335 Y100.409 E8.62437
G1 X110.998 Y100.456 E8.64648
G1 X111.311 Y100.494 E8.65697
G1 X111.979 Y100.61 E8.67952
G1 X112.265 Y100.675 E8.68927
G1 X112.863 Y100.841 E8.70991
G1 X113.152 Y100.936 E8.72003
G1 X113.803 Y101.189 E8.74326
G1 X114.087 Y101.317 E8.75362
G1 X114.676 Y101.619 E8.77564
G1 X114.934 Y101.768 E8.78555
G1 X115.496 Y102.131 E8.8078
G1 X115.744 Y102.31 E8.81797
G1 X116.279 Y102.741 E8.84082
G1 X116.505 Y102.943 E8.8509
G1 X116.99 Y103.423 E8.8736
G1 X117.191 Y103.644 E8.88353
G1 X117.585 Y104.122 E8.90414
G1 X117.769 Y104.367 E8.91433
G1 X118.168 Y104.962 E8.93816
G1 X118.327 Y105.23 E8.94852
G1 X118.621 Y105.784 E8.96938
G1 X118.744 Y106.045 E8.97898
G1 X119.006 Y106.687 E9.00204
G1 X119.113 Y106.994 E9.01285
G1 X119.297 Y107.619 E9.03452
G1 X119.365 Y107.901 E9.04417
G1 X119.491 Y108.573 E9.06691
G1 X119.531 Y108.872 E9.07694
G1 X119.585 Y109.509 E9.09821
G1 X119.596 Y109.814 E9.10836
G1 X119.582 Y110.537 E9.13241
G1 X119.559 Y110.849 E9.14282
G1 X119.482 Y111.478 E9.16389
G1 X119.432 Y111.77 E9.17375
G1 X119.283 Y112.432 E9.19631
