;FLAVOR:Marlin
;TIME:1783
;Filament used: 0.998624m
;Layer height: 0.16
;MINX:85.781
;MINY:81.947
;MINZ:0.2
;MAXX:134.182
;MAXY:130.35
;MAXZ:5.96
;Generated with Creality Slicer 4.8.2-172
M140 S60
M105
M190 S60
M104 S200
M105
M109 S200
M82 ;absolute extrusion mode

G28 ;Home

G92 E0 ;Reset Extruder
G1 Z2.0 F3000 ;Move Z Axis up
G1 X10.1 Y20 Z0.28 F5000.0 ;Move to start position
G1 X10.1 Y200.0 Z0.28 F1500.0 E15 ;Draw the first line
G1 X10.4 Y200.0 Z0.28 F5000.0 ;Move to side a little
G1 X10.4 Y20 Z0.28 F1500.0 E30 ;Draw the second line
G92 E0 ;Reset Extruder
G1 Z2.0 F3000 ;Move Z Axis up

G92 E0
G92 E0
G1 F3600 E-5
;LAYER_COUNT:39
;LAYER:0
M107
G0 F6000 X92.633 Y89.274 Z0.2
;TYPE:SKIRT
G1 F3600 E0
G1 F1200 X93.018 Y88.888 E0.01813
G1 X93.202 Y88.709 E0.02667
G1 X93.627 Y88.31 E0.04606
G1 X93.832 Y88.125 E0.05524
G1 X94.238 Y87.77 E0.07318
G1 X94.404 Y87.629 E0.08043
G1 X94.824 Y87.282 E0.09855
G1 X95.066 Y87.089 E0.10884
G1 X95.523 Y86.741 E0.12795
G1 X95.717 Y86.599 E0.13594
G1 X96.161 Y86.282 E0.15409
G1 X96.379 Y86.132 E0.16289
G1 X96.858 Y85.814 E0.18201
G1 X97.109 Y85.654 E0.19191
G1 X97.576 Y85.369 E0.21011
G1 X97.772 Y85.253 E0.21768
G1 X98.252 Y84.979 E0.23607
G1 X98.527 Y84.829 E0.24649
G1 X99.032 Y84.567 E0.26541
G1 X99.233 Y84.467 E0.27287
G1 X99.724 Y84.23 E0.29101
G1 X99.963 Y84.119 E0.29977
G1 X100.461 Y83.899 E0.31788
G1 X100.721 Y83.79 E0.32726
G1 X101.262 Y83.574 E0.34663
G1 X101.483 Y83.49 E0.3545
G1 X101.996 Y83.303 E0.37266
G1 X102.27 Y83.208 E0.3823
G1 X102.812 Y83.033 E0.40125
G1 X103.076 Y82.953 E0.41042
G1 X103.6 Y82.804 E0.42854
G1 X103.858 Y82.736 E0.43741
G1 X104.387 Y82.605 E0.45554
G1 X104.617 Y82.551 E0.4634
G1 X105.187 Y82.428 E0.48279
G1 X105.457 Y82.375 E0.49194
G1 X105.993 Y82.279 E0.51005
G1 X106.259 Y82.236 E0.51902
G1 X106.823 Y82.155 E0.53797
G1 X107.085 Y82.122 E0.54675
G1 X107.634 Y82.062 E0.56512
G1 X107.902 Y82.038 E0.57407
G1 X108.439 Y81.998 E0.59198
G1 X108.696 Y81.983 E0.60054
G1 X109.277 Y81.959 E0.61988
G1 X109.527 Y81.952 E0.6282
G1 X110.068 Y81.947 E0.6462
G1 X110.355 Y81.95 E0.65574
G1 X110.899 Y81.965 E0.67384
G1 X111.167 Y81.977 E0.68276
G1 X111.747 Y82.013 E0.70209
G1 X111.978 Y82.031 E0.7098
G1 X112.522 Y82.081 E0.72797
G1 X112.804 Y82.112 E0.7374
G1 X113.371 Y82.185 E0.75642
G1 X113.667 Y82.229 E0.76637
G1 X114.203 Y82.319 E0.78445
G1 X114.416 Y82.358 E0.79165
G1 X114.95 Y82.463 E0.80975
G1 X115.252 Y82.528 E0.82003
G1 X115.819 Y82.663 E0.83941
G1 X116.043 Y82.72 E0.8471
G1 X116.562 Y82.86 E0.86498
G1 X116.815 Y82.933 E0.87374
G1 X117.344 Y83.095 E0.89214
G1 X117.625 Y83.187 E0.90197
G1 X118.162 Y83.374 E0.92088
G1 X118.384 Y83.455 E0.92874
G1 X118.899 Y83.652 E0.94708
G1 X119.145 Y83.751 E0.9559
G1 X119.678 Y83.976 E0.97515
G1 X119.94 Y84.092 E0.98468
G1 X120.427 Y84.319 E1.00255
G1 X120.643 Y84.424 E1.01054
G1 X121.135 Y84.672 E1.02886
G1 X121.376 Y84.799 E1.03792
G1 X121.848 Y85.058 E1.05583
G1 X122.078 Y85.189 E1.06463
G1 X122.58 Y85.487 E1.08405
G1 X122.803 Y85.625 E1.09277
G1 X123.281 Y85.931 E1.11165
G1 X123.513 Y86.085 E1.12091
G1 X123.967 Y86.399 E1.13927
G1 X124.168 Y86.543 E1.14749
G1 X124.602 Y86.864 E1.16545
G1 X124.812 Y87.024 E1.17423
G1 X125.262 Y87.381 E1.19333
G1 X125.491 Y87.571 E1.20323
G1 X125.905 Y87.926 E1.22137
G1 X126.065 Y88.066 E1.22844
G1 X126.469 Y88.432 E1.24657
G1 X126.7 Y88.65 E1.25714
G1 X127.111 Y89.054 E1.2763
G1 X127.272 Y89.217 E1.28392
G1 X127.649 Y89.61 E1.30204
G1 X127.827 Y89.802 E1.31075
G1 X128.192 Y90.209 E1.32893
G1 X128.386 Y90.434 E1.33881
G1 X128.753 Y90.876 E1.35792
G1 X128.896 Y91.054 E1.36551
G1 X129.237 Y91.49 E1.38392
G1 X129.416 Y91.727 E1.3938
G1 X129.731 Y92.163 E1.41169
G1 X129.867 Y92.358 E1.4196
G1 X130.19 Y92.835 E1.43876
G1 X130.35 Y93.081 E1.44852
G1 X130.658 Y93.575 E1.46788
G1 X130.775 Y93.77 E1.47544
G1 X131.047 Y94.236 E1.49339
G1 X131.193 Y94.497 E1.50334
G1 X131.449 Y94.977 E1.52143
G1 X131.562 Y95.197 E1.52966
G1 X131.82 Y95.72 E1.54905
G1 X131.946 Y95.987 E1.55887
G1 X132.166 Y96.479 E1.5768
G1 X132.257 Y96.692 E1.5845
G1 X132.465 Y97.197 E1.60267
G1 X132.564 Y97.45 E1.6117
G1 X132.764 Y97.988 E1.63079
G1 X132.857 Y98.252 E1.6401
G1 X133.029 Y98.771 E1.65829
G1 X133.103 Y99.009 E1.66658
G1 X133.266 Y99.559 E1.68566
G1 X133.338 Y99.817 E1.69457
G1 X133.477 Y100.353 E1.71298
G1 X133.54 Y100.614 E1.72191
G1 X133.657 Y101.139 E1.7398
G1 X133.711 Y101.4 E1.74867
G1 X133.817 Y101.966 E1.76782
G1 X133.859 Y102.213 E1.77615
G1 X133.942 Y102.751 E1.79426
G1 X133.98 Y103.032 E1.80369
G1 X134.048 Y103.612 E1.82311
G1 X134.074 Y103.866 E1.83161
G1 X134.119 Y104.401 E1.84946
G1 X134.136 Y104.67 E1.85843
G1 X134.163 Y105.216 E1.87661
G1 X134.172 Y105.466 E1.88493
G1 X134.182 Y106.042 E1.90409
G1 X134.181 Y106.334 E1.9138
G1 X134.17 Y106.88 E1.93197
G1 X134.162 Y107.12 E1.93995
G1 X134.134 Y107.67 E1.95827
G1 X134.116 Y107.936 E1.96714
G1 X134.07 Y108.475 E1.98513
G1 X134.045 Y108.719 E1.99329
G1 X133.982 Y109.257 E2.01131
G1 X133.943 Y109.542 E2.02087
G1 X133.849 Y110.15 E2.04134
G1 X133.8 Y110.432 E2.05086
G1 X133.698 Y110.962 E2.06881
G1 X133.647 Y111.207 E2.07713
G1 X133.527 Y111.738 E2.09524
G1 X133.465 Y111.995 E2.10403
G1 X133.327 Y112.522 E2.12215
G1 X133.265 Y112.745 E2.12985
G1 X133.111 Y113.269 E2.14801
G1 X133.027 Y113.537 E2.15735
G1 X132.843 Y114.089 E2.17671
G1 X132.743 Y114.37 E2.18663
G1 X132.542 Y114.904 E2.2056
G1 X132.452 Y115.133 E2.21379
G1 X132.241 Y115.644 E2.23218
G1 X132.14 Y115.877 E2.24062
G1 X131.907 Y116.393 E2.25945
G1 X131.783 Y116.654 E2.26906
G1 X131.537 Y117.149 E2.28745
G1 X131.427 Y117.362 E2.29542
G1 X131.173 Y117.836 E2.31331
G1 X131.029 Y118.094 E2.32314
G1 X130.735 Y118.596 E2.34248
G1 X130.614 Y118.796 E2.35026
G1 X130.327 Y119.254 E2.36824
G1 X130.173 Y119.489 E2.37758
G1 X129.851 Y119.964 E2.39667
G1 X129.699 Y120.18 E2.40545
G1 X129.377 Y120.622 E2.42364
G1 X129.215 Y120.837 E2.43259
G1 X128.88 Y121.265 E2.45067
G1 X128.712 Y121.472 E2.45954
G1 X128.341 Y121.914 E2.47873
G1 X128.172 Y122.109 E2.48731
G1 X127.804 Y122.519 E2.50564
G1 X127.623 Y122.714 E2.51449
G1 X127.228 Y123.125 E2.53345
G1 X127.04 Y123.314 E2.54231
G1 X126.649 Y123.694 E2.56045
G1 X126.461 Y123.87 E2.56901
G1 X126.052 Y124.242 E2.5874
G1 X125.847 Y124.422 E2.59648
G1 X125.414 Y124.789 E2.61535
G1 X125.216 Y124.952 E2.62388
G1 X124.787 Y125.292 E2.64209
G1 X124.574 Y125.455 E2.65101
G1 X124.131 Y125.782 E2.66933
G1 X123.914 Y125.936 E2.67818
G1 X123.445 Y126.258 E2.6971
G1 X123.22 Y126.407 E2.70607
G1 X122.76 Y126.7 E2.72421
G1 X122.536 Y126.838 E2.73296
G1 X122.033 Y127.135 E2.75239
G1 X121.814 Y127.259 E2.76076
G1 X121.343 Y127.517 E2.77862
G1 X121.09 Y127.65 E2.78813
G1 X120.595 Y127.898 E2.80655
G1 X120.354 Y128.013 E2.81543
G1 X119.831 Y128.253 E2.83457
G1 X119.607 Y128.352 E2.84271
G1 X119.111 Y128.561 E2.86061
G1 X118.863 Y128.66 E2.86949
G1 X118.318 Y128.868 E2.8889
G1 X118.055 Y128.963 E2.8982
G1 X117.539 Y129.139 E2.91633
G1 X117.296 Y129.218 E2.92483
G1 X116.781 Y129.375 E2.94274
G1 X116.516 Y129.451 E2.95191
G1 X115.961 Y129.599 E2.97101
G1 X115.703 Y129.663 E2.97985
G1 X115.165 Y129.787 E2.99821
G1 X114.937 Y129.836 E3.00597
G1 X114.4 Y129.943 E3.02418
G1 X114.103 Y129.996 E3.03422
G1 X113.538 Y130.086 E3.05325
G1 X113.307 Y130.119 E3.06101
G1 X112.771 Y130.188 E3.07898
G1 X112.491 Y130.219 E3.08835
G1 X111.916 Y130.272 E3.10756
G1 X111.64 Y130.293 E3.11676
G1 X111.091 Y130.324 E3.13505
G1 X110.851 Y130.333 E3.14304
G1 X110.306 Y130.347 E3.16117
G1 X110.024 Y130.35 E3.17055
G1 X109.453 Y130.344 E3.18955
G1 X109.209 Y130.337 E3.19766
G1 X108.659 Y130.314 E3.21597
G1 X108.379 Y130.297 E3.2253
G1 X107.84 Y130.255 E3.24328
G1 X107.571 Y130.23 E3.25227
G1 X106.995 Y130.165 E3.27155
G1 X106.743 Y130.132 E3.28
G1 X106.209 Y130.054 E3.29795
G1 X105.945 Y130.011 E3.30685
G1 X105.371 Y129.907 E3.32625
G1 X105.093 Y129.851 E3.33568
G1 X104.568 Y129.736 E3.35356
G1 X104.339 Y129.682 E3.36138
G1 X103.801 Y129.547 E3.37983
G1 X103.536 Y129.476 E3.38896
G1 X102.985 Y129.317 E3.40803
G1 X102.712 Y129.233 E3.41753
G1 X102.201 Y129.065 E3.43542
G1 X101.966 Y128.983 E3.4437
G1 X101.453 Y128.796 E3.46186
G1 X101.216 Y128.705 E3.47031
G1 X100.676 Y128.488 E3.48966
G1 X100.435 Y128.387 E3.49835
G1 X99.941 Y128.169 E3.51631
G1 X99.666 Y128.041 E3.5264
G1 X99.144 Y127.786 E3.54572
G1 X98.964 Y127.695 E3.55243
G1 X98.513 Y127.46 E3.56935
G1 X98.234 Y127.308 E3.57991
G1 X97.727 Y127.017 E3.59936
G1 X97.537 Y126.904 E3.60671
G1 X97.078 Y126.623 E3.62461
G1 X96.84 Y126.471 E3.634
G1 X96.356 Y126.15 E3.65332
G1 X96.122 Y125.989 E3.66277
G1 X95.684 Y125.675 E3.68069
G1 X95.483 Y125.526 E3.68901
G1 X95.02 Y125.171 E3.70842
G1 X94.805 Y125 E3.71755
G1 X94.384 Y124.653 E3.7357
G1 X94.171 Y124.471 E3.74502
G1 X93.74 Y124.089 E3.76417
G1 X93.568 Y123.932 E3.77192
G1 X93.176 Y123.563 E3.78982
G1 X92.978 Y123.37 E3.79902
G1 X92.589 Y122.977 E3.81741
G1 X92.405 Y122.784 E3.82628
G1 X92.015 Y122.362 E3.84539
G1 X91.843 Y122.17 E3.85397
G1 X91.485 Y121.756 E3.87217
G1 X91.31 Y121.546 E3.88126
G1 X90.95 Y121.099 E3.90035
G1 X90.785 Y120.887 E3.90929
G1 X90.461 Y120.455 E3.92725
G1 X90.302 Y120.235 E3.93628
G1 X89.987 Y119.783 E3.9546
G1 X89.85 Y119.581 E3.96272
G1 X89.536 Y119.099 E3.98185
G1 X89.393 Y118.869 E3.99086
G1 X89.115 Y118.408 E4.00876
G1 X88.977 Y118.17 E4.01792
G1 X88.694 Y117.661 E4.03729
G1 X88.572 Y117.433 E4.04589
G1 X88.323 Y116.948 E4.06402
G1 X88.202 Y116.702 E4.07314
G1 X87.97 Y116.208 E4.09129
G1 X87.865 Y115.974 E4.09982
G1 X87.637 Y115.444 E4.11901
G1 X87.535 Y115.196 E4.12793
G1 X87.34 Y114.696 E4.14578
G1 X87.246 Y114.441 E4.15482
G1 X87.053 Y113.89 E4.17424
G1 X86.974 Y113.653 E4.18254
G1 X86.81 Y113.132 E4.20071
G1 X86.735 Y112.88 E4.20946
G1 X86.589 Y112.355 E4.22758
G1 X86.518 Y112.079 E4.23706
G1 X86.386 Y111.527 E4.25594
G1 X86.334 Y111.294 E4.26388
G1 X86.222 Y110.753 E4.28225
G1 X86.171 Y110.482 E4.29142
G1 X86.079 Y109.942 E4.30964
G1 X86.037 Y109.668 E4.31886
G1 X85.961 Y109.101 E4.33789
G1 X85.931 Y108.847 E4.3464
G1 X85.876 Y108.301 E4.36465
G1 X85.854 Y108.035 E4.37353
G1 X85.816 Y107.462 E4.39263
G1 X85.803 Y107.209 E4.40105
G1 X85.785 Y106.675 E4.41882
G1 X85.781 Y106.412 E4.42757
G1 X85.781 Y105.863 E4.44583
G1 X85.786 Y105.591 E4.45488
G1 X85.805 Y105.046 E4.47302
G1 X85.818 Y104.782 E4.48181
G1 X85.858 Y104.201 E4.50118
G1 X85.881 Y103.939 E4.50993
G1 X85.936 Y103.404 E4.52781
G1 X85.965 Y103.157 E4.53609
G1 X86.038 Y102.617 E4.55421
G1 X86.082 Y102.334 E4.56374
G1 X86.18 Y101.767 E4.58287
G1 X86.226 Y101.522 E4.59116
G1 X86.344 Y100.949 E4.61062
G1 X86.411 Y100.654 E4.62068
G1 X86.54 Y100.131 E4.6386
G1 X86.601 Y99.9 E4.64655
G1 X86.748 Y99.374 E4.66471
G1 X86.823 Y99.12 E4.67352
G1 X86.998 Y98.567 E4.69281
G1 X87.083 Y98.315 E4.70166
G1 X87.263 Y97.807 E4.71958
G1 X87.352 Y97.567 E4.7281
G1 X87.551 Y97.059 E4.74624
G1 X87.656 Y96.805 E4.75538
G1 X87.885 Y96.276 E4.77456
G1 X87.991 Y96.042 E4.7831
G1 X88.224 Y95.549 E4.80124
G1 X88.343 Y95.308 E4.81018
G1 X88.593 Y94.823 E4.82833
G1 X88.723 Y94.581 E4.83746
G1 X89.004 Y94.08 E4.85657
G1 X89.134 Y93.857 E4.86515
G1 X89.436 Y93.358 E4.88455
G1 X89.579 Y93.131 E4.89348
G1 X89.873 Y92.681 E4.91135
G1 X90.025 Y92.457 E4.92036
G1 X90.339 Y92.011 E4.9385
G1 X90.491 Y91.802 E4.94709
G1 X90.842 Y91.337 E4.96647
G1 X91.004 Y91.13 E4.97521
G1 X91.343 Y90.711 E4.99314
G1 X91.519 Y90.501 E5.00225
G1 X91.877 Y90.089 E5.02041
G1 X92.037 Y89.91 E5.02839
G1 X92.428 Y89.487 E5.04755
G1 X92.633 Y89.274 E5.05738
G0 F6000 X92.917 Y89.556
G1 F1200 X93.302 Y89.17 E5.07552
G1 X93.476 Y89.001 E5.08358
G1 X93.901 Y88.602 E5.10297
G1 X94.095 Y88.426 E5.11169
G1 X94.501 Y88.071 E5.12962
G1 X94.659 Y87.937 E5.13651
G1 X95.079 Y87.59 E5.15463
G1 X95.309 Y87.408 E5.16439
G1 X95.766 Y87.06 E5.18349
G1 X95.949 Y86.924 E5.19108
G1 X96.393 Y86.607 E5.20922
G1 X96.6 Y86.465 E5.21757
G1 X97.079 Y86.147 E5.2367
G1 X97.317 Y85.995 E5.24609
G1 X97.784 Y85.71 E5.26428
G1 X97.97 Y85.6 E5.27147
G1 X98.45 Y85.326 E5.28985
G1 X98.711 Y85.184 E5.29974
G1 X99.216 Y84.922 E5.31866
G1 X99.407 Y84.827 E5.32575
G1 X99.898 Y84.59 E5.34389
G1 X100.125 Y84.485 E5.35221
G1 X100.623 Y84.265 E5.37031
G1 X100.869 Y84.162 E5.37918
G1 X101.41 Y83.946 E5.39856
G1 X101.62 Y83.866 E5.40603
G1 X102.133 Y83.679 E5.42419
G1 X102.393 Y83.589 E5.43335
G1 X102.935 Y83.414 E5.45229
G1 X103.185 Y83.338 E5.46098
G1 X103.709 Y83.189 E5.4791
G1 X103.954 Y83.124 E5.48753
G1 X104.483 Y82.993 E5.50566
G1 X104.701 Y82.942 E5.5131
G1 X105.271 Y82.819 E5.5325
G1 X105.527 Y82.769 E5.54117
G1 X106.063 Y82.673 E5.55928
G1 X106.316 Y82.632 E5.56781
G1 X106.88 Y82.551 E5.58676
G1 X107.128 Y82.52 E5.59507
G1 X107.677 Y82.46 E5.61344
G1 X107.931 Y82.436 E5.62193
G1 X108.468 Y82.396 E5.63984
G1 X108.713 Y82.382 E5.648
G1 X109.294 Y82.358 E5.66734
G1 X109.531 Y82.352 E5.67522
G1 X110.072 Y82.347 E5.69322
G1 X110.344 Y82.35 E5.70227
G1 X110.888 Y82.365 E5.72037
G1 X111.142 Y82.376 E5.72882
G1 X111.722 Y82.412 E5.74815
G1 X111.941 Y82.429 E5.75546
G1 X112.485 Y82.479 E5.77363
G1 X112.753 Y82.509 E5.7826
G1 X113.32 Y82.582 E5.80161
G1 X113.6 Y82.623 E5.81102
G1 X114.136 Y82.713 E5.8291
G1 X114.339 Y82.75 E5.83596
G1 X114.873 Y82.855 E5.85406
G1 X115.159 Y82.917 E5.8638
G1 X115.726 Y83.052 E5.88318
G1 X115.939 Y83.106 E5.89049
G1 X116.458 Y83.246 E5.90837
G1 X116.698 Y83.315 E5.91667
G1 X117.227 Y83.477 E5.93508
G1 X117.494 Y83.565 E5.94443
G1 X118.031 Y83.752 E5.96334
G1 X118.241 Y83.828 E5.97077
G1 X118.756 Y84.025 E5.98911
G1 X118.99 Y84.12 E5.99751
G1 X119.523 Y84.345 E6.01675
G1 X119.771 Y84.455 E6.02577
G1 X120.258 Y84.682 E6.04364
G1 X120.463 Y84.781 E6.05121
G1 X120.955 Y85.029 E6.06954
G1 X121.184 Y85.15 E6.07815
G1 X121.656 Y85.409 E6.09606
G1 X121.873 Y85.533 E6.10437
G1 X122.375 Y85.831 E6.12379
G1 X122.588 Y85.962 E6.13211
G1 X123.066 Y86.268 E6.15099
G1 X123.285 Y86.414 E6.15974
G1 X123.739 Y86.728 E6.1781
G1 X123.93 Y86.865 E6.18592
G1 X124.364 Y87.186 E6.20387
G1 X124.563 Y87.338 E6.2122
G1 X125.013 Y87.695 E6.23131
G1 X125.231 Y87.874 E6.24069
G1 X125.645 Y88.229 E6.25883
G1 X125.796 Y88.363 E6.26554
G1 X126.2 Y88.729 E6.28367
G1 X126.419 Y88.936 E6.29369
G1 X126.83 Y89.34 E6.31286
G1 X126.983 Y89.494 E6.32008
G1 X127.36 Y89.887 E6.3382
G1 X127.529 Y90.069 E6.34646
G1 X127.894 Y90.476 E6.36464
G1 X128.078 Y90.69 E6.37403
G1 X128.445 Y91.132 E6.39313
G1 X128.581 Y91.3 E6.40032
G1 X128.922 Y91.736 E6.41873
G1 X129.091 Y91.961 E6.42809
G1 X129.406 Y92.397 E6.44598
G1 X129.535 Y92.582 E6.45348
G1 X129.858 Y93.059 E6.47264
G1 X130.01 Y93.293 E6.48193
G1 X130.318 Y93.787 E6.50129
G1 X130.43 Y93.972 E6.50848
G1 X130.702 Y94.438 E6.52643
G1 X130.84 Y94.686 E6.53587
G1 X131.096 Y95.166 E6.55396
G1 X131.203 Y95.374 E6.56174
G1 X131.461 Y95.897 E6.58114
G1 X131.58 Y96.15 E6.59044
G1 X131.8 Y96.642 E6.60836
G1 X131.887 Y96.845 E6.61571
G1 X132.095 Y97.35 E6.63387
G1 X132.189 Y97.589 E6.64241
G1 X132.389 Y98.127 E6.6615
G1 X132.477 Y98.378 E6.67035
G1 X132.649 Y98.897 E6.68854
G1 X132.72 Y99.122 E6.69638
G1 X132.883 Y99.672 E6.71546
G1 X132.951 Y99.917 E6.72392
G1 X133.09 Y100.453 E6.74234
G1 X133.15 Y100.701 E6.75082
G1 X133.267 Y101.226 E6.76871
G1 X133.318 Y101.474 E6.77713
G1 X133.424 Y102.04 E6.79629
G1 X133.463 Y102.274 E6.80418
G1 X133.546 Y102.812 E6.82228
G1 X133.583 Y103.078 E6.83122
G1 X133.651 Y103.658 E6.85064
G1 X133.675 Y103.9 E6.85873
G1 X133.72 Y104.435 E6.87658
G1 X133.737 Y104.69 E6.88508
G1 X133.764 Y105.236 E6.90327
G1 X133.772 Y105.473 E6.91115
G1 X133.782 Y106.049 E6.93031
G1 X133.781 Y106.326 E6.93953
G1 X133.77 Y106.872 E6.95769
G1 X133.762 Y107.099 E6.96525
G1 X133.734 Y107.649 E6.98356
G1 X133.717 Y107.902 E6.992
G1 X133.671 Y108.441 E7.00999
G1 X133.648 Y108.673 E7.01774
G1 X133.585 Y109.211 E7.03576
G1 X133.548 Y109.481 E7.04482
G1 X133.454 Y110.089 E7.06529
G1 X133.408 Y110.356 E7.0743
G1 X133.306 Y110.886 E7.09225
G1 X133.257 Y111.119 E7.10017
G1 X133.137 Y111.65 E7.11827
G1 X133.078 Y111.894 E7.12662
G1 X132.94 Y112.421 E7.14474
G1 X132.881 Y112.633 E7.15206
G1 X132.727 Y113.157 E7.17023
G1 X132.647 Y113.41 E7.17905
G1 X132.463 Y113.962 E7.1984
