;FLAVOR:Marlin
;TIME:2105
;Filament used: 1.47351m
;Layer height: 0.16
;MINX:77.203
;MINY:65.498
;MINZ:0.2
;MAXX:142.798
;MAXY:131.096
;MAXZ:3.48
;Generated with Creality Slicer 4.8.2-172
M140 S60
M105
M190 S60
M104 S200
M105
M109 S200
M82 ;absolute extrusion mode

G28 ;Home

G92 E0 ;Reset Extruder
G1 Z2.0 F3000 ;Move Z Axis up
G1 X10.1 Y20 Z0.28 F5000.0 ;Move to start position
G1 X10.1 Y200.0 Z0.28 F1500.0 E15 ;Draw the first line
G1 X10.4 Y200.0 Z0.28 F5000.0 ;Move to side a little
G1 X10.4 Y20 Z0.28 F1500.0 E30 ;Draw the second line
G92 E0 ;Reset Extruder
G1 Z2.0 F3000 ;Move Z Axis up

G92 E0
G92 E0
G1 F3600 E-5
;LAYER_COUNT:21
;LAYER:0
M107
G0 F6000 X85.682 Y76.291 Z0.2
;TYPE:SKIRT
G1 F3600 E0
G1 F1200 X85.846 Y76.111 E0.0081
G1 X86.422 Y75.499 E0.03605
G1 X86.61 Y75.306 E0.04501
G1 X87.206 Y74.715 E0.07293
G1 X87.394 Y74.535 E0.08159
G1 X88.015 Y73.959 E0.10976
G1 X88.221 Y73.774 E0.11897
G1 X88.851 Y73.23 E0.14665
G1 X89.039 Y73.073 E0.1548
G1 X89.692 Y72.544 E0.18275
G1 X89.882 Y72.395 E0.19078
G1 X90.557 Y71.882 E0.21898
G1 X90.8 Y71.705 E0.22898
G1 X91.482 Y71.227 E0.25668
G1 X91.684 Y71.09 E0.2648
G1 X92.386 Y70.63 E0.29271
G1 X92.617 Y70.484 E0.3018
G1 X93.341 Y70.045 E0.32996
G1 X93.555 Y69.92 E0.3382
G1 X94.286 Y69.508 E0.36611
G1 X94.516 Y69.383 E0.37482
G1 X95.256 Y68.998 E0.40256
G1 X95.498 Y68.878 E0.41155
G1 X96.257 Y68.516 E0.43952
G1 X96.503 Y68.404 E0.44851
G1 X97.273 Y68.069 E0.47644
G1 X97.502 Y67.973 E0.48469
G1 X98.289 Y67.66 E0.51286
G1 X98.537 Y67.566 E0.52169
G1 X99.32 Y67.285 E0.54935
G1 X99.566 Y67.202 E0.55799
G1 X100.368 Y66.944 E0.58601
G1 X100.625 Y66.866 E0.59494
G1 X101.431 Y66.637 E0.62281
G1 X101.704 Y66.565 E0.6322
G1 X102.519 Y66.365 E0.66011
G1 X102.732 Y66.316 E0.66738
G1 X103.561 Y66.137 E0.69559
G1 X103.841 Y66.081 E0.70509
G1 X104.662 Y65.935 E0.73282
G1 X104.912 Y65.895 E0.74124
G1 X105.742 Y65.775 E0.76914
G1 X106.012 Y65.741 E0.77819
G1 X106.855 Y65.649 E0.80639
G1 X107.111 Y65.625 E0.81495
G1 X107.941 Y65.562 E0.84263
G1 X108.209 Y65.547 E0.85156
G1 X109.056 Y65.512 E0.87975
G1 X109.313 Y65.505 E0.88831
G1 X110.147 Y65.498 E0.91605
G1 X110.408 Y65.5 E0.92473
G1 X111.245 Y65.521 E0.95257
G1 X111.519 Y65.533 E0.9617
G1 X112.364 Y65.584 E0.98985
G1 X112.599 Y65.602 E0.99769
G1 X113.437 Y65.678 E1.02568
G1 X113.722 Y65.709 E1.03521
G1 X114.55 Y65.815 E1.06298
G1 X114.789 Y65.849 E1.07101
G1 X115.616 Y65.981 E1.09886
G1 X115.89 Y66.03 E1.10812
G1 X116.715 Y66.192 E1.13608
G1 X116.963 Y66.245 E1.14452
G1 X117.788 Y66.435 E1.17267
G1 X118.058 Y66.502 E1.18193
G1 X118.867 Y66.719 E1.20979
G1 X119.098 Y66.785 E1.21778
G1 X119.904 Y67.028 E1.24578
G1 X120.164 Y67.111 E1.25485
G1 X120.952 Y67.379 E1.28254
G1 X121.205 Y67.471 E1.29149
G1 X121.991 Y67.769 E1.31945
G1 X122.221 Y67.86 E1.32768
G1 X123.005 Y68.186 E1.35592
G1 X123.247 Y68.291 E1.36469
G1 X124.01 Y68.639 E1.39258
G1 X124.258 Y68.758 E1.40173
G1 X125.003 Y69.13 E1.42943
G1 X125.228 Y69.247 E1.43786
G1 X125.966 Y69.646 E1.46577
G1 X126.2 Y69.778 E1.4747
G1 X126.932 Y70.207 E1.50292
G1 X127.144 Y70.335 E1.51116
G1 X127.854 Y70.782 E1.53906
G1 X128.079 Y70.929 E1.548
G1 X128.767 Y71.396 E1.57566
G1 X128.978 Y71.545 E1.58425
G1 X129.659 Y72.041 E1.61227
G1 X129.876 Y72.205 E1.62132
G1 X130.535 Y72.721 E1.64916
G1 X130.738 Y72.885 E1.65784
G1 X131.388 Y73.43 E1.68605
G1 X131.578 Y73.595 E1.69442
G1 X132.198 Y74.15 E1.72209
G1 X132.394 Y74.332 E1.73099
G1 X133.002 Y74.915 E1.75901
G1 X133.189 Y75.1 E1.76776
G1 X133.774 Y75.7 E1.79563
G1 X133.956 Y75.893 E1.80445
G1 X134.527 Y76.52 E1.83266
G1 X134.694 Y76.71 E1.84107
G1 X135.234 Y77.343 E1.86874
G1 X135.402 Y77.546 E1.87751
G1 X135.926 Y78.204 E1.90549
G1 X136.09 Y78.418 E1.91445
G1 X136.594 Y79.098 E1.9426
G1 X136.742 Y79.305 E1.95107
G1 X137.216 Y79.99 E1.97877
G1 X137.36 Y80.205 E1.98738
G1 X137.814 Y80.91 E2.01527
G1 X137.962 Y81.15 E2.02465
G1 X138.392 Y81.874 E2.05266
G1 X138.511 Y82.082 E2.06063
G1 X138.917 Y82.816 E2.08852
G1 X139.042 Y83.051 E2.09738
G1 X139.424 Y83.801 E2.12537
G1 X139.546 Y84.051 E2.13462
G1 X139.9 Y84.812 E2.16254
G1 X140 Y85.036 E2.1707
G1 X140.33 Y85.808 E2.19862
G1 X140.432 Y86.059 E2.20763
G1 X140.735 Y86.842 E2.23556
G1 X140.826 Y87.088 E2.24428
G1 X141.103 Y87.882 E2.27225
G1 X141.185 Y88.13 E2.28094
G1 X141.435 Y88.932 E2.30888
G1 X141.507 Y89.18 E2.31747
G1 X141.732 Y89.996 E2.34562
G1 X141.798 Y90.25 E2.35435
G1 X141.992 Y91.059 E2.38202
G1 X142.048 Y91.313 E2.39067
G1 X142.217 Y92.138 E2.41868
G1 X142.265 Y92.394 E2.42735
G1 X142.406 Y93.222 E2.45528
G1 X142.447 Y93.489 E2.46427
G1 X142.559 Y94.32 E2.49215
G1 X142.59 Y94.581 E2.5009
G1 X142.674 Y95.416 E2.52881
G1 X142.695 Y95.669 E2.53725
G1 X142.752 Y96.509 E2.56526
G1 X142.766 Y96.775 E2.57412
G1 X142.794 Y97.609 E2.60187
G1 X142.798 Y97.871 E2.61058
G1 X142.798 Y98.715 E2.63866
G1 X142.794 Y98.975 E2.6473
G1 X142.766 Y99.816 E2.67529
G1 X142.752 Y100.082 E2.68415
G1 X142.695 Y100.926 E2.71229
G1 X142.673 Y101.187 E2.721
G1 X142.589 Y102.015 E2.74868
G1 X142.559 Y102.267 E2.75712
G1 X142.447 Y103.1 E2.78508
G1 X142.406 Y103.372 E2.79422
G1 X142.265 Y104.199 E2.82213
G1 X142.22 Y104.442 E2.83035
G1 X142.051 Y105.273 E2.85855
G1 X141.991 Y105.542 E2.86772
G1 X141.796 Y106.353 E2.89546
G1 X141.732 Y106.603 E2.90404
G1 X141.509 Y107.412 E2.93196
G1 X141.434 Y107.666 E2.94076
G1 X141.184 Y108.466 E2.96864
G1 X141.105 Y108.705 E2.97701
G1 X140.828 Y109.5 E3.00501
G1 X140.739 Y109.741 E3.01356
G1 X140.437 Y110.524 E3.04147
G1 X140.332 Y110.783 E3.05077
G1 X140.002 Y111.555 E3.07869
G1 X139.897 Y111.79 E3.08725
G1 X139.542 Y112.55 E3.11515
G1 X139.429 Y112.782 E3.12373
G1 X139.048 Y113.532 E3.15171
G1 X138.93 Y113.755 E3.16011
G1 X138.525 Y114.492 E3.18808
G1 X138.384 Y114.738 E3.19751
G1 X137.953 Y115.459 E3.22544
G1 X137.823 Y115.669 E3.23366
G1 X137.37 Y116.375 E3.26156
G1 X137.218 Y116.602 E3.27065
G1 X136.739 Y117.294 E3.29864
G1 X136.59 Y117.502 E3.30715
G1 X136.09 Y118.176 E3.33506
G1 X135.929 Y118.387 E3.34389
G1 X135.406 Y119.044 E3.37182
G1 X135.238 Y119.248 E3.38061
G1 X134.693 Y119.887 E3.40854
G1 X134.523 Y120.079 E3.41707
G1 X133.957 Y120.7 E3.44502
G1 X133.781 Y120.887 E3.45356
G1 X133.191 Y121.493 E3.48169
G1 X133.004 Y121.679 E3.49046
G1 X132.403 Y122.256 E3.51817
G1 X132.204 Y122.44 E3.52719
G1 X131.573 Y123.005 E3.55536
G1 X131.383 Y123.17 E3.56373
G1 X130.744 Y123.706 E3.59147
G1 X130.532 Y123.877 E3.60053
G1 X129.87 Y124.394 E3.62846
G1 X129.666 Y124.548 E3.63696
G1 X128.982 Y125.047 E3.66512
G1 X128.754 Y125.207 E3.67439
G1 X128.059 Y125.677 E3.70229
G1 X127.86 Y125.808 E3.71022
G1 X127.155 Y126.254 E3.73796
G1 X126.912 Y126.401 E3.74741
G1 X126.181 Y126.827 E3.77555
G1 X125.973 Y126.945 E3.78351
G1 X125.241 Y127.342 E3.8112
G1 X124.999 Y127.467 E3.82026
G1 X124.246 Y127.842 E3.84824
G1 X124.002 Y127.958 E3.85723
G1 X123.238 Y128.306 E3.88515
G1 X122.994 Y128.413 E3.89401
G1 X122.213 Y128.737 E3.92213
G1 X121.997 Y128.822 E3.92985
G1 X121.211 Y129.121 E3.95782
G1 X120.952 Y129.215 E3.96699
G1 X120.162 Y129.484 E3.99474
G1 X119.907 Y129.566 E4.00365
G1 X119.104 Y129.809 E4.03156
G1 X118.85 Y129.881 E4.04034
G1 X118.038 Y130.097 E4.06828
G1 X117.784 Y130.16 E4.07699
G1 X116.959 Y130.35 E4.10515
G1 X116.707 Y130.404 E4.11372
G1 X115.885 Y130.565 E4.14158
G1 X115.623 Y130.611 E4.15043
G1 X114.795 Y130.744 E4.17832
G1 X114.536 Y130.781 E4.18702
G1 X113.705 Y130.886 E4.21488
G1 X113.452 Y130.914 E4.22334
G1 X112.616 Y130.992 E4.25127
G1 X112.342 Y131.013 E4.26041
G1 X111.496 Y131.062 E4.2886
G1 X111.241 Y131.073 E4.29709
G1 X110.405 Y131.094 E4.3249
G1 X110.144 Y131.096 E4.33358
G1 X109.309 Y131.089 E4.36135
G1 X109.052 Y131.082 E4.3699
G1 X108.206 Y131.047 E4.39807
G1 X107.938 Y131.032 E4.40699
G1 X107.107 Y130.969 E4.43471
G1 X106.841 Y130.944 E4.4436
G1 X105.999 Y130.851 E4.47177
G1 X105.749 Y130.819 E4.48016
G1 X104.925 Y130.701 E4.50784
G1 X104.657 Y130.658 E4.51687
G1 X103.83 Y130.51 E4.54481
G1 X103.593 Y130.464 E4.55284
G1 X102.764 Y130.289 E4.58102
G1 X102.481 Y130.224 E4.59068
G1 X101.666 Y130.02 E4.61863
G1 X101.431 Y129.957 E4.62672
G1 X100.624 Y129.728 E4.65462
G1 X100.368 Y129.65 E4.66352
G1 X99.574 Y129.395 E4.69126
G1 X99.312 Y129.306 E4.70046
G1 X98.522 Y129.021 E4.72839
G1 X98.294 Y128.935 E4.7365
G1 X97.507 Y128.623 E4.76466
G1 X97.261 Y128.521 E4.77351
G1 X96.489 Y128.184 E4.80153
G1 X96.253 Y128.075 E4.81018
G1 X95.496 Y127.714 E4.83807
G1 X95.257 Y127.595 E4.84695
G1 X94.518 Y127.211 E4.87465
G1 X94.291 Y127.089 E4.88322
G1 X93.56 Y126.678 E4.91111
G1 X93.321 Y126.538 E4.92033
G1 X92.598 Y126.097 E4.94849
G1 X92.398 Y125.971 E4.95636
G1 X91.699 Y125.515 E4.98411
G1 X91.464 Y125.355 E4.99357
G1 X90.778 Y124.871 E5.02149
G1 X90.589 Y124.734 E5.02926
G1 X89.913 Y124.226 E5.05738
G1 X89.688 Y124.05 E5.06688
G1 X89.034 Y123.52 E5.09488
G1 X88.832 Y123.35 E5.10366
G1 X88.203 Y122.804 E5.13137
G1 X88.016 Y122.637 E5.1397
G1 X87.394 Y122.061 E5.1679
G1 X87.193 Y121.867 E5.17719
G1 X86.599 Y121.276 E5.20506
G1 X86.433 Y121.107 E5.21294
G1 X85.856 Y120.497 E5.24087
G1 X85.666 Y120.288 E5.25026
G1 X85.111 Y119.657 E5.27821
G1 X84.945 Y119.463 E5.2867
G1 X84.415 Y118.819 E5.31444
G1 X84.255 Y118.617 E5.32302
G1 X83.739 Y117.946 E5.35117
G1 X83.576 Y117.726 E5.36028
G1 X83.088 Y117.043 E5.38819
G1 X82.948 Y116.841 E5.39637
G1 X82.481 Y116.142 E5.42433
G1 X82.335 Y115.915 E5.43331
G1 X81.893 Y115.201 E5.46124
G1 X81.756 Y114.971 E5.47014
G1 X81.342 Y114.248 E5.49785
G1 X81.215 Y114.018 E5.50659
G1 X80.819 Y113.269 E5.53477
G1 X80.704 Y113.041 E5.54326
G1 X80.336 Y112.286 E5.5712
G1 X80.221 Y112.04 E5.58023
G1 X79.88 Y111.274 E5.60812
G1 X79.784 Y111.049 E5.61625
G1 X79.469 Y110.277 E5.64399
G1 X79.371 Y110.024 E5.65301
G1 X79.078 Y109.228 E5.68122
G1 X78.992 Y108.981 E5.68992
G1 X78.729 Y108.185 E5.7178
G1 X78.65 Y107.932 E5.72662
G1 X78.414 Y107.127 E5.75452
G1 X78.348 Y106.888 E5.76277
G1 X78.137 Y106.073 E5.79077
G1 X78.07 Y105.793 E5.80034
G1 X77.891 Y104.979 E5.82806
G1 X77.841 Y104.734 E5.83638
G1 X77.686 Y103.903 E5.8645
G1 X77.643 Y103.65 E5.87303
G1 X77.516 Y102.818 E5.90102
G1 X77.482 Y102.562 E5.90961
G1 X77.383 Y101.729 E5.93751
G1 X77.356 Y101.464 E5.94637
G1 X77.286 Y100.634 E5.97408
G1 X77.268 Y100.365 E5.98304
G1 X77.226 Y99.519 E6.01122
G1 X77.217 Y99.263 E6.01974
G1 X77.203 Y98.429 E6.04748
G1 X77.203 Y98.168 E6.05616
G1 X77.217 Y97.329 E6.08407
G1 X77.226 Y97.062 E6.09296
G1 X77.269 Y96.218 E6.12106
G1 X77.286 Y95.961 E6.12963
G1 X77.356 Y95.129 E6.1574
G1 X77.382 Y94.873 E6.16596
G1 X77.48 Y94.039 E6.19389
G1 X77.517 Y93.769 E6.20295
G1 X77.644 Y92.939 E6.23088
G1 X77.684 Y92.701 E6.23891
G1 X77.838 Y91.868 E6.26708
G1 X77.896 Y91.582 E6.27679
G1 X78.078 Y90.769 E6.3045
G1 X78.138 Y90.522 E6.31295
G1 X78.348 Y89.709 E6.34088
G1 X78.414 Y89.468 E6.34919
G1 X78.65 Y88.662 E6.37712
G1 X78.731 Y88.404 E6.38612
G1 X78.995 Y87.606 E6.41407
G1 X79.078 Y87.367 E6.42249
G1 X79.37 Y86.572 E6.45066
G1 X79.469 Y86.317 E6.45976
G1 X79.784 Y85.544 E6.48752
G1 X79.883 Y85.312 E6.49591
G1 X80.224 Y84.547 E6.52377
G1 X80.337 Y84.305 E6.53265
G1 X80.705 Y83.55 E6.56058
G1 X80.825 Y83.314 E6.56939
G1 X81.219 Y82.571 E6.59736
G1 X81.344 Y82.344 E6.60598
G1 X81.765 Y81.61 E6.63413
G1 X81.895 Y81.392 E6.64257
G1 X82.333 Y80.683 E6.67029
G1 X82.48 Y80.453 E6.67936
G1 X82.945 Y79.756 E6.70723
G1 X83.096 Y79.538 E6.71605
G1 X83.586 Y78.855 E6.74401
G1 X83.732 Y78.659 E6.75214
G1 X84.246 Y77.988 E6.78025
G1 X84.421 Y77.768 E6.7896
G1 X84.953 Y77.123 E6.81741
G1 X85.126 Y76.92 E6.82628
G1 X85.682 Y76.291 E6.8542
G0 F6000 X85.982 Y76.556
G1 F1200 X86.137 Y76.385 E6.86188
G1 X86.713 Y75.773 E6.88983
G1 X86.891 Y75.59 E6.89832
G1 X87.487 Y74.999 E6.92624
G1 X87.666 Y74.829 E6.93445
G1 X88.287 Y74.253 E6.96262
G1 X88.483 Y74.077 E6.97138
G1 X89.113 Y73.533 E6.99907
G1 X89.291 Y73.384 E7.00679
G1 X89.944 Y72.855 E7.03474
G1 X90.124 Y72.713 E7.04237
G1 X90.799 Y72.2 E7.07057
G1 X91.03 Y72.032 E7.08007
G1 X91.712 Y71.554 E7.10777
G1 X91.903 Y71.424 E7.11545
G1 X92.605 Y70.964 E7.14336
G1 X92.824 Y70.826 E7.15197
G1 X93.548 Y70.387 E7.18014
G1 X93.752 Y70.268 E7.18799
G1 X94.483 Y69.856 E7.2159
G1 X94.701 Y69.738 E7.22414
G1 X95.441 Y69.353 E7.25189
G1 X95.67 Y69.239 E7.2604
G1 X96.429 Y68.877 E7.28837
G1 X96.663 Y68.77 E7.29692
G1 X97.433 Y68.435 E7.32485
G1 X97.65 Y68.345 E7.33267
G1 X98.437 Y68.032 E7.36084
G1 X98.672 Y67.943 E7.36919
G1 X99.455 Y67.662 E7.39686
G1 X99.689 Y67.583 E7.40508
G1 X100.491 Y67.325 E7.4331
G1 X100.735 Y67.251 E7.44158
G1 X101.541 Y67.022 E7.46945
G1 X101.799 Y66.953 E7.47833
G1 X102.614 Y66.753 E7.50624
G1 X102.816 Y66.707 E7.51313
G1 X103.645 Y66.528 E7.54134
G1 X103.911 Y66.475 E7.55036
G1 X104.732 Y66.329 E7.5781
G1 X104.969 Y66.291 E7.58608
G1 X105.799 Y66.171 E7.61397
G1 X106.055 Y66.139 E7.62255
G1 X106.898 Y66.047 E7.65076
G1 X107.141 Y66.024 E7.65888
G1 X107.971 Y65.961 E7.68656
G1 X108.225 Y65.946 E7.69502
G1 X109.072 Y65.911 E7.72322
G1 X109.316 Y65.905 E7.73134
G1 X110.15 Y65.898 E7.75908
G1 X110.398 Y65.9 E7.76733
G1 X111.235 Y65.921 E7.79517
G1 X111.495 Y65.932 E7.80383
G1 X112.34 Y65.983 E7.83199
G1 X112.562 Y66 E7.83939
G1 X113.4 Y66.076 E7.86738
G1 X113.672 Y66.106 E7.87648
G1 X114.5 Y66.212 E7.90424
G1 X114.726 Y66.244 E7.91183
G1 X115.553 Y66.376 E7.93969
G1 X115.813 Y66.423 E7.94848
G1 X116.638 Y66.585 E7.97644
G1 X116.873 Y66.635 E7.98443
G1 X117.698 Y66.825 E8.01259
G1 X117.954 Y66.889 E8.02137
G1 X118.763 Y67.106 E8.04922
G1 X118.982 Y67.168 E8.05679
G1 X119.788 Y67.411 E8.08479
G1 X120.035 Y67.49 E8.09342
G1 X120.823 Y67.758 E8.1211
G1 X121.063 Y67.845 E8.12959
G1 X121.849 Y68.143 E8.15755
G1 X122.067 Y68.229 E8.16535
G1 X122.851 Y68.555 E8.19359
G1 X123.081 Y68.655 E8.20193
G1 X123.844 Y69.003 E8.22982
G1 X124.079 Y69.115 E8.23848
G1 X124.824 Y69.487 E8.26618
G1 X125.037 Y69.598 E8.27416
G1 X125.775 Y69.997 E8.30207
G1 X125.998 Y70.123 E8.31059
G1 X126.73 Y70.552 E8.33881
G1 X126.931 Y70.674 E8.34663
G1 X127.641 Y71.121 E8.37453
G1 X127.854 Y71.26 E8.38299
G1 X128.542 Y71.727 E8.41065
G1 X128.743 Y71.868 E8.41881
G1 X129.424 Y72.364 E8.44683
G1 X129.629 Y72.52 E8.4554
G1 X130.288 Y73.036 E8.48324
G1 X130.481 Y73.191 E8.49147
G1 X131.131 Y73.736 E8.51969
G1 X131.312 Y73.893 E8.52766
G1 X131.932 Y74.448 E8.55533
G1 X132.118 Y74.621 E8.56378
G1 X132.726 Y75.204 E8.5918
G1 X132.902 Y75.379 E8.60005
G1 X133.487 Y75.979 E8.62792
G1 X133.66 Y76.162 E8.6363
G1 X134.231 Y76.789 E8.66451
G1 X134.39 Y76.969 E8.67249
G1 X134.93 Y77.602 E8.70017
G1 X135.089 Y77.795 E8.70849
G1 X135.613 Y78.453 E8.73646
G1 X135.769 Y78.657 E8.745
G1 X136.273 Y79.337 E8.77316
G1 X136.413 Y79.532 E8.78114
G1 X136.887 Y80.217 E8.80885
G1 X137.024 Y80.421 E8.81702
G1 X137.478 Y81.126 E8.84491
G1 X137.618 Y81.354 E8.85381
G1 X138.048 Y82.078 E8.88181
G1 X138.161 Y82.275 E8.88937
G1 X138.567 Y83.009 E8.91727
G1 X138.686 Y83.232 E8.92567
G1 X139.068 Y83.982 E8.95367
G1 X139.184 Y84.22 E8.96247
G1 X139.538 Y84.981 E8.99039
G1 X139.632 Y85.193 E8.9981
G1 X139.962 Y85.965 E9.02603
G1 X140.059 Y86.203 E9.03458
G1 X140.362 Y86.986 E9.0625
G1 X140.448 Y87.219 E9.07076
G1 X140.725 Y88.013 E9.09873
G1 X140.803 Y88.249 E9.107
G1 X141.053 Y89.051 E9.13494
G1 X141.122 Y89.286 E9.14308
G1 X141.347 Y90.102 E9.17124
G1 X141.409 Y90.343 E9.17951
G1 X141.603 Y91.152 E9.20718
G1 X141.656 Y91.393 E9.21539
G1 X141.825 Y92.218 E9.2434
G1 X141.871 Y92.461 E9.25163
G1 X142.012 Y93.289 E9.27956
G1 X142.051 Y93.543 E9.28811
G1 X142.163 Y94.374 E9.316
G1 X142.192 Y94.621 E9.32427
G1 X142.276 Y95.456 E9.35218
G1 X142.296 Y95.696 E9.36019
G1 X142.353 Y96.536 E9.3882
G1 X142.366 Y96.789 E9.39662
G1 X142.394 Y97.623 E9.42438
G1 X142.398 Y97.871 E9.43263
G1 X142.398 Y98.715 E9.4607
G1 X142.394 Y98.961 E9.46888
G1 X142.366 Y99.802 E9.49687
G1 X142.353 Y100.055 E9.50529
G1 X142.296 Y100.899 E9.53343
G1 X142.275 Y101.147 E9.54171
G1 X142.191 Y101.975 E9.56939
G1 X142.163 Y102.214 E9.57739
G1 X142.051 Y103.047 E9.60535
G1 X142.012 Y103.305 E9.61402
G1 X141.871 Y104.132 E9.64193
G1 X141.828 Y104.363 E9.64974
G1 X141.659 Y105.194 E9.67795
G1 X141.602 Y105.449 E9.68664
