;FLAVOR:Marlin
;TIME:6912
;Filament used: 4.30756m
;Layer height: 0.16
;MINX:42.204
;MINY:42.201
;MINZ:0.2
;MAXX:177.795
;MAXY:177.797
;MAXZ:9.96
;Generated with Creality Slicer 4.8.2-172
M140 S60
M105
M190 S60
M104 S200
M105
M109 S200
M82 ;absolute extrusion mode

G28 ;Home

G92 E0 ;Reset Extruder
G1 Z2.0 F3000 ;Move Z Axis up
G1 X10.1 Y20 Z0.28 F5000.0 ;Move to start position
G1 X10.1 Y200.0 Z0.28 F1500.0 E15 ;Draw the first line
G1 X10.4 Y200.0 Z0.28 F5000.0 ;Move to side a little
G1 X10.4 Y20 Z0.28 F1500.0 E30 ;Draw the second line
G92 E0 ;Reset Extruder
G1 Z2.0 F3000 ;Move Z Axis up

G92 E0
G92 E0
G1 F3600 E-5
;LAYER_COUNT:59
;LAYER:0
M107
G0 F6000 X62.165 Y61.948 Z0.2
;TYPE:SKIRT
G1 F3600 E0
G1 F1200 X62.353 Y61.761 E0.00882
G1 X63.804 Y60.37 E0.07567
G1 X63.992 Y60.197 E0.08417
G1 X65.497 Y58.846 E0.15144
G1 X65.704 Y58.666 E0.16056
G1 X67.246 Y57.377 E0.22741
G1 X67.444 Y57.217 E0.23587
G1 X69.032 Y55.975 E0.30293
G1 X69.236 Y55.821 E0.31143
G1 X70.869 Y54.628 E0.37869
G1 X71.094 Y54.469 E0.38786
G1 X72.757 Y53.342 E0.45467
G1 X72.97 Y53.203 E0.46313
G1 X74.675 Y52.127 E0.53019
G1 X74.906 Y51.986 E0.53919
G1 X76.652 Y50.967 E0.60643
G1 X76.869 Y50.845 E0.61471
G1 X78.636 Y49.888 E0.68155
G1 X78.872 Y49.766 E0.69038
G1 X80.678 Y48.866 E0.75749
G1 X80.92 Y48.75 E0.76642
G1 X82.753 Y47.914 E0.83343
G1 X82.995 Y47.809 E0.8422
G1 X84.861 Y47.033 E0.90942
G1 X85.092 Y46.941 E0.91769
G1 X86.979 Y46.226 E0.9848
G1 X87.236 Y46.134 E0.99388
G1 X89.139 Y45.488 E1.06073
G1 X89.381 Y45.41 E1.06918
G1 X91.309 Y44.825 E1.13619
G1 X91.567 Y44.752 E1.14511
G1 X93.516 Y44.233 E1.2122
G1 X93.771 Y44.169 E1.22094
G1 X95.741 Y43.715 E1.28818
G1 X95.995 Y43.661 E1.29682
G1 X97.973 Y43.274 E1.36385
G1 X98.235 Y43.228 E1.3727
G1 X100.223 Y42.909 E1.43967
G1 X100.474 Y42.872 E1.44811
G1 X102.47 Y42.618 E1.51503
G1 X102.736 Y42.589 E1.52393
G1 X104.744 Y42.403 E1.591
G1 X105.008 Y42.383 E1.59981
G1 X107.028 Y42.265 E1.66711
G1 X107.285 Y42.255 E1.67566
G1 X109.297 Y42.204 E1.7426
G1 X109.561 Y42.201 E1.75138
G1 X111.573 Y42.218 E1.8183
G1 X111.835 Y42.225 E1.82702
G1 X113.854 Y42.31 E1.89423
G1 X114.116 Y42.325 E1.90296
G1 X116.12 Y42.477 E1.96981
G1 X116.382 Y42.502 E1.97856
G1 X118.392 Y42.723 E2.04582
G1 X118.646 Y42.755 E2.05433
G1 X120.635 Y43.04 E2.12116
G1 X120.898 Y43.082 E2.13002
G1 X122.883 Y43.436 E2.19708
G1 X123.141 Y43.487 E2.20583
G1 X125.119 Y43.909 E2.2731
G1 X125.371 Y43.967 E2.2817
G1 X127.329 Y44.453 E2.3488
G1 X127.583 Y44.52 E2.35754
G1 X129.521 Y45.071 E2.42455
G1 X129.778 Y45.149 E2.43348
G1 X131.689 Y45.764 E2.50025
G1 X131.935 Y45.848 E2.5089
G1 X133.834 Y46.53 E2.57601
G1 X134.076 Y46.621 E2.58461
G1 X135.955 Y47.367 E2.65185
G1 X136.196 Y47.468 E2.66054
G1 X138.039 Y48.272 E2.72742
G1 X138.276 Y48.38 E2.73608
G1 X140.101 Y49.25 E2.80332
G1 X140.34 Y49.369 E2.8122
G1 X142.123 Y50.295 E2.87903
G1 X142.354 Y50.42 E2.88776
G1 X144.111 Y51.409 E2.95482
G1 X144.335 Y51.54 E2.96345
G1 X146.063 Y52.59 E3.03071
G1 X146.281 Y52.727 E3.03927
G1 X147.962 Y53.826 E3.10607
G1 X148.186 Y53.978 E3.11507
G1 X149.834 Y55.139 E3.18212
G1 X150.042 Y55.291 E3.19069
G1 X151.655 Y56.509 E3.25791
G1 X151.86 Y56.669 E3.26656
G1 X153.424 Y57.934 E3.33347
G1 X153.628 Y58.105 E3.34232
G1 X155.151 Y59.425 E3.40935
G1 X155.345 Y59.599 E3.41802
G1 X156.824 Y60.97 E3.4851
G1 X157.017 Y61.155 E3.49399
G1 X158.446 Y62.574 E3.56097
G1 X158.621 Y62.754 E3.56932
G1 X160.01 Y64.225 E3.63661
G1 X160.194 Y64.427 E3.6457
G1 X161.523 Y65.937 E3.7126
G1 X161.686 Y66.128 E3.72096
G1 X162.968 Y67.683 E3.78799
G1 X163.134 Y67.892 E3.79686
G1 X164.366 Y69.495 E3.86411
G1 X164.525 Y69.708 E3.87295
G1 X165.698 Y71.347 E3.93998
G1 X165.843 Y71.558 E3.9485
G1 X166.958 Y73.229 E4.01531
G1 X167.102 Y73.452 E4.02414
G1 X168.167 Y75.172 E4.09143
G1 X168.304 Y75.402 E4.10033
G1 X169.302 Y77.145 E4.16713
G1 X169.424 Y77.367 E4.17556
G1 X170.369 Y79.149 E4.24265
G1 X170.489 Y79.385 E4.25145
G1 X171.372 Y81.196 E4.31847
G1 X171.482 Y81.431 E4.3271
G1 X172.308 Y83.279 E4.39442
G1 X172.412 Y83.524 E4.40327
G1 X173.168 Y85.383 E4.47002
G1 X173.263 Y85.627 E4.47873
G1 X173.96 Y87.521 E4.54585
G1 X174.046 Y87.768 E4.55455
G1 X174.678 Y89.681 E4.62156
G1 X174.756 Y89.93 E4.63024
G1 X175.324 Y91.864 E4.69728
G1 X175.393 Y92.115 E4.70594
G1 X175.898 Y94.074 E4.77323
G1 X175.96 Y94.333 E4.78209
G1 X176.395 Y96.296 E4.84896
G1 X176.447 Y96.551 E4.85762
G1 X176.817 Y98.53 E4.92458
G1 X176.861 Y98.787 E4.93325
G1 X177.165 Y100.781 E5.00034
G1 X177.2 Y101.043 E5.00913
G1 X177.437 Y103.052 E5.07641
G1 X177.463 Y103.31 E5.08504
G1 X177.632 Y105.312 E5.15186
G1 X177.65 Y105.58 E5.16079
G1 X177.754 Y107.67 E5.23039
G1 X177.763 Y107.934 E5.23918
G1 X177.795 Y109.945 E5.30607
G1 X177.795 Y110.199 E5.31452
G1 X177.764 Y112.063 E5.37653
G1 X177.755 Y112.323 E5.38518
G1 X177.653 Y114.358 E5.45295
G1 X177.636 Y114.612 E5.46142
G1 X177.468 Y116.639 E5.52907
G1 X177.442 Y116.905 E5.53795
G1 X177.202 Y118.947 E5.60634
G1 X177.166 Y119.214 E5.6153
G1 X176.862 Y121.206 E5.68232
G1 X176.819 Y121.456 E5.69076
G1 X176.449 Y123.445 E5.75805
G1 X176.395 Y123.711 E5.76708
G1 X175.959 Y125.672 E5.83389
G1 X175.898 Y125.928 E5.84264
G1 X175.394 Y127.881 E5.90973
G1 X175.325 Y128.13 E5.91832
G1 X174.757 Y130.064 E5.98537
G1 X174.68 Y130.311 E5.99397
G1 X174.048 Y132.226 E6.06104
G1 X173.959 Y132.479 E6.06996
G1 X173.26 Y134.375 E6.13717
G1 X173.166 Y134.618 E6.14584
G1 X172.408 Y136.48 E6.2127
G1 X172.306 Y136.721 E6.22141
G1 X171.484 Y138.561 E6.28844
G1 X171.375 Y138.793 E6.29696
G1 X170.493 Y140.605 E6.36399
G1 X170.372 Y140.843 E6.37287
G1 X169.425 Y142.63 E6.44014
G1 X169.3 Y142.858 E6.44878
G1 X168.3 Y144.602 E6.51565
G1 X168.165 Y144.827 E6.52438
G1 X167.104 Y146.541 E6.59142
G1 X166.963 Y146.761 E6.60011
G1 X165.845 Y148.439 E6.66718
G1 X165.694 Y148.658 E6.67602
G1 X164.52 Y150.296 E6.74305
G1 X164.366 Y150.503 E6.75163
G1 X163.134 Y152.107 E6.8189
G1 X162.968 Y152.316 E6.82778
G1 X161.69 Y153.867 E6.89462
G1 X161.523 Y154.062 E6.90316
G1 X160.186 Y155.58 E6.97044
G1 X160.007 Y155.777 E6.9793
G1 X158.629 Y157.238 E7.04609
G1 X158.447 Y157.425 E7.05477
G1 X157.015 Y158.845 E7.12185
G1 X156.826 Y159.026 E7.13055
G1 X155.344 Y160.4 E7.19777
G1 X155.149 Y160.575 E7.20648
G1 X153.629 Y161.892 E7.27338
G1 X153.429 Y162.059 E7.28204
G1 X151.863 Y163.327 E7.34906
G1 X151.652 Y163.492 E7.35797
G1 X150.036 Y164.711 E7.42529
G1 X149.827 Y164.863 E7.43389
G1 X148.181 Y166.021 E7.50083
G1 X147.966 Y166.168 E7.50949
G1 X146.283 Y167.27 E7.5764
G1 X146.059 Y167.411 E7.5852
G1 X144.33 Y168.461 E7.65248
G1 X144.109 Y168.59 E7.66099
G1 X142.353 Y169.579 E7.72802
G1 X142.117 Y169.707 E7.73695
G1 X140.334 Y170.632 E7.80376
G1 X140.103 Y170.747 E7.81235
G1 X138.277 Y171.619 E7.87965
G1 X138.028 Y171.732 E7.88874
G1 X136.187 Y172.533 E7.95552
G1 X135.959 Y172.628 E7.96373
G1 X134.079 Y173.376 E8.03103
G1 X133.829 Y173.471 E8.03993
G1 X131.931 Y174.152 E8.10699
G1 X131.681 Y174.237 E8.11578
G1 X129.768 Y174.851 E8.1826
G1 X129.52 Y174.926 E8.19122
G1 X127.581 Y175.478 E8.25827
G1 X127.321 Y175.547 E8.26722
G1 X125.364 Y176.032 E8.33428
G1 X125.12 Y176.088 E8.3426
G1 X123.143 Y176.511 E8.40985
G1 X122.877 Y176.564 E8.41887
G1 X120.892 Y176.917 E8.48593
G1 X120.636 Y176.958 E8.49455
G1 X118.647 Y177.244 E8.56138
G1 X118.389 Y177.276 E8.57003
G1 X116.379 Y177.497 E8.63729
G1 X116.113 Y177.522 E8.64617
G1 X114.11 Y177.673 E8.71298
G1 X113.847 Y177.688 E8.72174
G1 X111.774 Y177.774 E8.79075
G1 X111.513 Y177.781 E8.79944
G1 X109.514 Y177.797 E8.86592
G1 X109.25 Y177.794 E8.87471
G1 X107.277 Y177.743 E8.94035
G1 X107.02 Y177.732 E8.94891
G1 X105.001 Y177.613 E9.01617
G1 X104.745 Y177.594 E9.02471
G1 X102.736 Y177.409 E9.09181
G1 X102.466 Y177.38 E9.10085
G1 X100.471 Y177.126 E9.16774
G1 X100.221 Y177.09 E9.17614
G1 X98.232 Y176.771 E9.24314
G1 X97.969 Y176.724 E9.25202
G1 X95.991 Y176.337 E9.31906
G1 X95.734 Y176.282 E9.3278
G1 X93.764 Y175.827 E9.39505
G1 X93.505 Y175.763 E9.40392
G1 X91.559 Y175.243 E9.47092
G1 X91.315 Y175.173 E9.47936
G1 X89.384 Y174.589 E9.54646
G1 X89.132 Y174.508 E9.55526
G1 X87.231 Y173.862 E9.62204
G1 X86.981 Y173.772 E9.63088
G1 X85.094 Y173.058 E9.69798
G1 X84.856 Y172.964 E9.70649
G1 X82.987 Y172.186 E9.77383
G1 X82.744 Y172.08 E9.78264
G1 X80.912 Y171.243 E9.84963
G1 X80.677 Y171.131 E9.85829
G1 X78.873 Y170.233 E9.92532
G1 X78.636 Y170.11 E9.9342
G1 X76.868 Y169.153 E10.00106
G1 X76.641 Y169.025 E10.00973
G1 X74.895 Y168.003 E10.07702
G1 X74.678 Y167.871 E10.08547
G1 X72.973 Y166.797 E10.15249
G1 X72.748 Y166.65 E10.16143
G1 X71.087 Y165.522 E10.22821
G1 X70.874 Y165.372 E10.23687
G1 X69.239 Y164.18 E10.30417
G1 X69.026 Y164.019 E10.31305
G1 X67.438 Y162.776 E10.38013
G1 X67.24 Y162.615 E10.38861
G1 X65.7 Y161.326 E10.45541
G1 X65.502 Y161.155 E10.46411
G1 X63.995 Y159.805 E10.5314
G1 X63.799 Y159.624 E10.54028
G1 X62.349 Y158.233 E10.60711
G1 X62.165 Y158.05 E10.61574
G1 X60.753 Y156.602 E10.68301
G1 X60.572 Y156.41 E10.69178
G1 X59.214 Y154.92 E10.75884
G1 X59.042 Y154.725 E10.76748
G1 X57.735 Y153.191 E10.83451
G1 X57.567 Y152.987 E10.8433
G1 X56.312 Y151.409 E10.91036
G1 X56.152 Y151.2 E10.91912
G1 X54.955 Y149.586 E10.98595
G1 X54.805 Y149.376 E10.99453
G1 X53.655 Y147.713 E11.06178
G1 X53.51 Y147.497 E11.07044
G1 X52.419 Y145.801 E11.13751
G1 X52.277 Y145.571 E11.1465
G1 X51.246 Y143.839 E11.21354
G1 X51.12 Y143.619 E11.22197
G1 X50.145 Y141.853 E11.28907
G1 X50.017 Y141.613 E11.29811
G1 X49.105 Y139.816 E11.36514
G1 X48.993 Y139.586 E11.37365
G1 X48.14 Y137.759 E11.44071
G1 X48.034 Y137.52 E11.44941
G1 X47.246 Y135.673 E11.51619
G1 X47.145 Y135.426 E11.52507
G1 X46.415 Y133.539 E11.59236
G1 X46.325 Y133.295 E11.60101
G1 X45.661 Y131.392 E11.66805
G1 X45.58 Y131.147 E11.67663
G1 X44.979 Y129.222 E11.74371
G1 X44.905 Y128.968 E11.75251
G1 X44.37 Y127.025 E11.81954
G1 X44.305 Y126.773 E11.82819
G1 X43.837 Y124.821 E11.89496
G1 X43.781 Y124.567 E11.90361
G1 X43.375 Y122.584 E11.97093
G1 X43.326 Y122.322 E11.97979
G1 X42.989 Y120.333 E12.04689
G1 X42.949 Y120.076 E12.05554
G1 X42.679 Y118.08 E12.12253
G1 X42.648 Y117.814 E12.13144
G1 X42.447 Y115.814 E12.1983
G1 X42.426 Y115.559 E12.20681
G1 X42.29 Y113.542 E12.27404
G1 X42.276 Y113.282 E12.28271
G1 X42.208 Y111.278 E12.3494
G1 X42.204 Y111.013 E12.35821
G1 X42.204 Y108.993 E12.4254
G1 X42.208 Y108.73 E12.43415
G1 X42.276 Y106.714 E12.50124
G1 X42.29 Y106.452 E12.50996
G1 X42.426 Y104.435 E12.5772
G1 X42.448 Y104.175 E12.58588
G1 X42.65 Y102.177 E12.65267
G1 X42.68 Y101.918 E12.66134
G1 X42.95 Y99.918 E12.72847
G1 X42.99 Y99.656 E12.73728
G1 X43.327 Y97.671 E12.80425
G1 X43.375 Y97.416 E12.81288
G1 X43.78 Y95.433 E12.8802
G1 X43.837 Y95.174 E12.88902
G1 X44.306 Y93.219 E12.95588
G1 X44.371 Y92.967 E12.96454
G1 X44.906 Y91.025 E13.03154
G1 X44.981 Y90.77 E13.04038
G1 X45.582 Y88.847 E13.10739
G1 X45.66 Y88.612 E13.11562
G1 X46.325 Y86.7 E13.18295
G1 X46.419 Y86.443 E13.19206
G1 X47.145 Y84.57 E13.25887
G1 X47.244 Y84.328 E13.26756
G1 X48.035 Y82.474 E13.33461
G1 X48.143 Y82.232 E13.34342
G1 X48.996 Y80.407 E13.41042
G1 X49.109 Y80.175 E13.41901
G1 X50.023 Y78.377 E13.48609
G1 X50.143 Y78.151 E13.4946
G1 X51.115 Y76.385 E13.56165
G1 X51.251 Y76.148 E13.57074
G1 X52.285 Y74.416 E13.63783
G1 X52.421 Y74.195 E13.64646
G1 X53.511 Y72.5 E13.71349
G1 X53.655 Y72.284 E13.72212
G1 X54.805 Y70.62 E13.7894
G1 X54.957 Y70.409 E13.79804
G1 X56.154 Y68.795 E13.86488
G1 X56.316 Y68.584 E13.87373
G1 X57.571 Y67.007 E13.94076
G1 X57.735 Y66.807 E13.94936
G1 X59.042 Y65.272 E14.01642
G1 X59.22 Y65.071 E14.02535
G1 X60.579 Y63.582 E14.0924
G1 X60.754 Y63.396 E14.10089
G1 X62.165 Y61.948 E14.16814
G0 F6000 X62.451 Y62.228
G1 F1200 X62.63 Y62.05 E14.17653
G1 X64.081 Y60.659 E14.24339
G1 X64.259 Y60.494 E14.25146
G1 X65.764 Y59.143 E14.31873
G1 X65.961 Y58.972 E14.3274
G1 X67.503 Y57.683 E14.39425
G1 X67.69 Y57.532 E14.40224
G1 X69.278 Y56.29 E14.46929
G1 X69.472 Y56.144 E14.47737
G1 X71.105 Y54.951 E14.54463
G1 X71.319 Y54.8 E14.55335
G1 X72.982 Y53.673 E14.62016
G1 X73.184 Y53.541 E14.62819
G1 X74.889 Y52.465 E14.69524
G1 X75.108 Y52.332 E14.70377
G1 X76.854 Y51.313 E14.77101
G1 X77.06 Y51.197 E14.77887
G1 X78.827 Y50.24 E14.84571
G1 X79.05 Y50.124 E14.85407
G1 X80.856 Y49.224 E14.92118
G1 X81.086 Y49.114 E14.92966
G1 X82.919 Y48.278 E14.99667
G1 X83.149 Y48.178 E15.00501
G1 X85.015 Y47.402 E15.07222
G1 X85.234 Y47.315 E15.08006
G1 X87.121 Y46.6 E15.14718
G1 X87.364 Y46.513 E15.15576
G1 X89.267 Y45.867 E15.2226
G1 X89.497 Y45.793 E15.23064
G1 X91.425 Y45.208 E15.29765
G1 X91.67 Y45.138 E15.30613
G1 X93.619 Y44.619 E15.37321
G1 X93.861 Y44.559 E15.3815
G1 X95.831 Y44.105 E15.44874
G1 X96.072 Y44.054 E15.45694
G1 X98.05 Y43.667 E15.52397
G1 X98.299 Y43.622 E15.53239
G1 X100.287 Y43.303 E15.59935
G1 X100.525 Y43.269 E15.60735
G1 X102.521 Y43.015 E15.67427
G1 X102.772 Y42.988 E15.68267
G1 X104.78 Y42.802 E15.74974
G1 X105.031 Y42.783 E15.75811
G1 X107.051 Y42.665 E15.82541
G1 X107.295 Y42.654 E15.83354
G1 X109.307 Y42.603 E15.90048
G1 X109.558 Y42.601 E15.90883
G1 X111.57 Y42.618 E15.97575
G1 X111.818 Y42.625 E15.984
G1 X113.837 Y42.71 E16.05121
G1 X114.086 Y42.724 E16.05951
G1 X116.09 Y42.876 E16.12635
G1 X116.339 Y42.899 E16.13467
G1 X118.349 Y43.12 E16.20193
G1 X118.59 Y43.151 E16.21001
G1 X120.579 Y43.436 E16.27684
G1 X120.828 Y43.476 E16.28523
G1 X122.813 Y43.83 E16.35229
G1 X123.058 Y43.878 E16.36059
G1 X125.036 Y44.3 E16.42786
G1 X125.275 Y44.355 E16.43602
G1 X127.233 Y44.841 E16.50312
G1 X127.474 Y44.905 E16.51141
G1 X129.412 Y45.456 E16.57842
G1 X129.655 Y45.53 E16.58687
G1 X131.566 Y46.145 E16.65364
G1 X131.8 Y46.225 E16.66187
G1 X133.699 Y46.907 E16.72898
G1 X133.929 Y46.993 E16.73715
G1 X135.808 Y47.739 E16.80439
G1 X136.036 Y47.834 E16.8126
G1 X137.879 Y48.638 E16.87948
G1 X138.104 Y48.741 E16.88771
G1 X139.929 Y49.611 E16.95495
G1 X140.156 Y49.724 E16.96339
G1 X141.939 Y50.65 E17.03021
G1 X142.158 Y50.768 E17.03849
G1 X143.915 Y51.757 E17.10555
G1 X144.128 Y51.882 E17.11376
G1 X145.856 Y52.932 E17.18101
G1 X146.062 Y53.062 E17.18911
G1 X147.743 Y54.161 E17.25591
G1 X147.956 Y54.305 E17.26446
G1 X149.604 Y55.466 E17.33151
G1 X149.801 Y55.611 E17.33965
G1 X151.414 Y56.829 E17.40687
G1 X151.609 Y56.98 E17.41508
G1 X153.173 Y58.245 E17.48198
G1 X153.366 Y58.407 E17.49036
G1 X154.889 Y59.727 E17.5574
G1 X155.073 Y59.892 E17.56562
G1 X156.552 Y61.263 E17.63269
G1 X156.735 Y61.439 E17.64114
G1 X158.164 Y62.858 E17.70812
G1 X158.33 Y63.029 E17.71604
G1 X159.719 Y64.5 E17.78333
G1 X159.894 Y64.691 E17.79195
G1 X161.223 Y66.201 E17.85885
G1 X161.378 Y66.383 E17.86681
G1 X162.66 Y67.938 E17.93384
G1 X162.817 Y68.136 E17.94224
G1 X164.049 Y69.739 E18.00948
G1 X164.2 Y69.941 E18.01787
G1 X165.373 Y71.58 E18.08491
G1 X165.51 Y71.78 E18.09297
G1 X166.625 Y73.451 E18.15979
G1 X166.762 Y73.662 E18.16815
G1 X167.827 Y75.382 E18.23544
G1 X167.957 Y75.601 E18.24391
G1 X168.955 Y77.344 E18.31071
G1 X169.071 Y77.554 E18.31869
G1 X170.016 Y79.336 E18.38578
G1 X170.129 Y79.56 E18.39412
G1 X171.012 Y81.371 E18.46114
G1 X171.117 Y81.594 E18.46933
G1 X171.943 Y83.442 E18.53666
G1 X172.042 Y83.674 E18.54505
G1 X172.798 Y85.533 E18.6118
G1 X172.888 Y85.765 E18.62007
G1 X173.585 Y87.659 E18.6872
G1 X173.666 Y87.894 E18.69547
G1 X174.298 Y89.807 E18.76247
G1 X174.372 Y90.043 E18.7707
G1 X174.94 Y91.977 E18.83774
G1 X175.006 Y92.215 E18.84596
G1 X175.511 Y94.174 E18.91324
G1 X175.57 Y94.42 E18.92166
G1 X176.005 Y96.383 E18.98853
G1 X176.054 Y96.624 E18.99671
G1 X176.424 Y98.603 E19.06367
G1 X176.465 Y98.848 E19.07194
G1 X176.769 Y100.842 E19.13902
G1 X176.803 Y101.09 E19.14735
G1 X177.04 Y103.099 E19.21463
G1 X177.065 Y103.344 E19.22282
G1 X177.234 Y105.346 E19.28965
G1 X177.251 Y105.6 E19.29811
G1 X177.355 Y107.69 E19.36771
G1 X177.363 Y107.94 E19.37603
G1 X177.395 Y109.951 E19.44293
G1 X177.395 Y110.192 E19.45094
G1 X177.364 Y112.056 E19.51295
G1 X177.356 Y112.303 E19.52117
G1 X177.254 Y114.338 E19.58894
G1 X177.238 Y114.579 E19.59697
G1 X177.07 Y116.606 E19.66462
G1 X177.044 Y116.859 E19.67308
G1 X176.804 Y118.901 E19.74146
